Masters/REDlogFilm_REDgamma.cube
# 
# Discreet LUT file
# 
# Exported from CocoaLUT
# 
# 

# Ouput Scale: 65535
# Channels: 3
# Input Samples: 33

LUT_1D_SIZE 1024
LUT_1D_INPUT_RANGE 0.000000 1.000000

0.0693217365 0.0693217365 0.0693217365
0.0693217365 0.0693217365 0.0693217365
0.0693217365 0.0693217365 0.0693217365
0.0693217365 0.0693217365 0.0693217365
0.0693217365 0.0693217365 0.0693217365
0.0693217365 0.0693217365 0.0693217365
0.0693217365 0.0693217365 0.0693217365
0.0693217365 0.0693217365 0.0693217365
0.0693217365 0.0693217365 0.0693217365
0.0693217365 0.0693217365 0.0693217365
0.0693217365 0.0693217365 0.0693217365
0.0693217365 0.0693217365 0.0693217365
0.0693217365 0.0693217365 0.0693217365
0.0693217365 0.0693217365 0.0693217365
0.0693217365 0.0693217365 0.0693217365
0.0693217365 0.0693217365 0.0693217365
0.0693217365 0.0693217365 0.0693217365
0.0693217365 0.0693217365 0.0693217365
0.0693217365 0.0693217365 0.0693217365
0.0693217365 0.0693217365 0.0693217365
0.0693217365 0.0693217365 0.0693217365
0.0693217365 0.0693217365 0.0693217365
0.0693217365 0.0693217365 0.0693217365
0.0693217365 0.0693217365 0.0693217365
0.0693217365 0.0693217365 0.0693217365
0.0693217365 0.0693217365 0.0693217365
0.0693217365 0.0693217365 0.0693217365
0.0693217365 0.0693217365 0.0693217365
0.0693217365 0.0693217365 0.0693217365
0.0693217365 0.0693217365 0.0693217365
0.0693217365 0.0693217365 0.0693217365
0.0693217365 0.0693217365 0.0693217365
0.0693217365 0.0693217365 0.0693217365
0.0693217365 0.0693217365 0.0693217365
0.0693217365 0.0693217365 0.0693217365
0.0693217365 0.0693217365 0.0693217365
0.0693217365 0.0693217365 0.0693217365
0.0693217365 0.0693217365 0.0693217365
0.0693217365 0.0693217365 0.0693217365
0.0693217365 0.0693217365 0.0693217365
0.0693217365 0.0693217365 0.0693217365
0.0693217365 0.0693217365 0.0693217365
0.0693217365 0.0693217365 0.0693217365
0.0693217365 0.0693217365 0.0693217365
0.0693217365 0.0693217365 0.0693217365
0.0693217365 0.0693217365 0.0693217365
0.0693217365 0.0693217365 0.0693217365
0.0693217365 0.0693217365 0.0693217365
0.0693217365 0.0693217365 0.0693217365
0.0693217365 0.0693217365 0.0693217365
0.0693217365 0.0693217365 0.0693217365
0.0693217365 0.0693217365 0.0693217365
0.0693217365 0.0693217365 0.0693217365
0.0693217365 0.0693217365 0.0693217365
0.0693217365 0.0693217365 0.0693217365
0.0693217365 0.0693217365 0.0693217365
0.0693217365 0.0693217365 0.0693217365
0.0693217365 0.0693217365 0.0693217365
0.0693217365 0.0693217365 0.0693217365
0.0693217365 0.0693217365 0.0693217365
0.0693217365 0.0693217365 0.0693217365
0.0693217365 0.0693217365 0.0693217365
0.0693217365 0.0693217365 0.0693217365
0.0693217365 0.0693217365 0.0693217365
0.0693206029 0.0693206029 0.0693206029
0.0693024651 0.0693024651 0.0693024651
0.0692843273 0.0692843273 0.0692843273
0.0692661895 0.0692661895 0.0692661895
0.0692480517 0.0692480517 0.0692480517
0.0692299139 0.0692299139 0.0692299139
0.0692117761 0.0692117761 0.0692117761
0.0691936383 0.0691936383 0.0691936383
0.0691755005 0.0691755005 0.0691755005
0.0691573627 0.0691573627 0.0691573627
0.0691392249 0.0691392249 0.0691392249
0.0691210871 0.0691210871 0.0691210871
0.0691029492 0.0691029492 0.0691029492
0.0690848114 0.0690848114 0.0690848114
0.0690666736 0.0690666736 0.0690666736
0.0690485358 0.0690485358 0.0690485358
0.0690303980 0.0690303980 0.0690303980
0.0690122602 0.0690122602 0.0690122602
0.0689941224 0.0689941224 0.0689941224
0.0689759846 0.0689759846 0.0689759846
0.0689578468 0.0689578468 0.0689578468
0.0689397090 0.0689397090 0.0689397090
0.0689215712 0.0689215712 0.0689215712
0.0689034334 0.0689034334 0.0689034334
0.0688852956 0.0688852956 0.0688852956
0.0688671578 0.0688671578 0.0688671578
0.0688490200 0.0688490200 0.0688490200
0.0688308822 0.0688308822 0.0688308822
0.0688127444 0.0688127444 0.0688127444
0.0687946066 0.0687946066 0.0687946066
0.0687764688 0.0687764688 0.0687764688
0.0687583310 0.0687583310 0.0687583310
0.0687654758 0.0687654758 0.0687654758
0.0690170184 0.0690170184 0.0690170184
0.0692685611 0.0692685611 0.0692685611
0.0695201038 0.0695201038 0.0695201038
0.0697716465 0.0697716465 0.0697716465
0.0700231891 0.0700231891 0.0700231891
0.0702747318 0.0702747318 0.0702747318
0.0705262745 0.0705262745 0.0705262745
0.0707778171 0.0707778171 0.0707778171
0.0710293598 0.0710293598 0.0710293598
0.0712809025 0.0712809025 0.0712809025
0.0715324452 0.0715324452 0.0715324452
0.0717839878 0.0717839878 0.0717839878
0.0720355305 0.0720355305 0.0720355305
0.0722870732 0.0722870732 0.0722870732
0.0725386158 0.0725386158 0.0725386158
0.0727901585 0.0727901585 0.0727901585
0.0730417012 0.0730417012 0.0730417012
0.0732932439 0.0732932439 0.0732932439
0.0735447865 0.0735447865 0.0735447865
0.0737963292 0.0737963292 0.0737963292
0.0740478719 0.0740478719 0.0740478719
0.0742994145 0.0742994145 0.0742994145
0.0745509572 0.0745509572 0.0745509572
0.0748024999 0.0748024999 0.0748024999
0.0750540426 0.0750540426 0.0750540426
0.0753055852 0.0753055852 0.0753055852
0.0755571279 0.0755571279 0.0755571279
0.0758086706 0.0758086706 0.0758086706
0.0760602132 0.0760602132 0.0760602132
0.0763117559 0.0763117559 0.0763117559
0.0765632986 0.0765632986 0.0765632986
0.0768254015 0.0768254015 0.0768254015
0.0771614281 0.0771614281 0.0771614281
0.0774974548 0.0774974548 0.0774974548
0.0778334814 0.0778334814 0.0778334814
0.0781695080 0.0781695080 0.0781695080
0.0785055347 0.0785055347 0.0785055347
0.0788415613 0.0788415613 0.0788415613
0.0791775879 0.0791775879 0.0791775879
0.0795136146 0.0795136146 0.0795136146
0.0798496412 0.0798496412 0.0798496412
0.0801856678 0.0801856678 0.0801856678
0.0805216945 0.0805216945 0.0805216945
0.0808577211 0.0808577211 0.0808577211
0.0811937477 0.0811937477 0.0811937477
0.0815297744 0.0815297744 0.0815297744
0.0818658010 0.0818658010 0.0818658010
0.0822018276 0.0822018276 0.0822018276
0.0825378543 0.0825378543 0.0825378543
0.0828738809 0.0828738809 0.0828738809
0.0832099075 0.0832099075 0.0832099075
0.0835459342 0.0835459342 0.0835459342
0.0838819608 0.0838819608 0.0838819608
0.0842179874 0.0842179874 0.0842179874
0.0845540141 0.0845540141 0.0845540141
0.0848900407 0.0848900407 0.0848900407
0.0852260673 0.0852260673 0.0852260673
0.0855620940 0.0855620940 0.0855620940
0.0858981206 0.0858981206 0.0858981206
0.0862341472 0.0862341472 0.0862341472
0.0865701739 0.0865701739 0.0865701739
0.0869062005 0.0869062005 0.0869062005
0.0872422271 0.0872422271 0.0872422271
0.0875916781 0.0875916781 0.0875916781
0.0880136207 0.0880136207 0.0880136207
0.0884355632 0.0884355632 0.0884355632
0.0888575057 0.0888575057 0.0888575057
0.0892794483 0.0892794483 0.0892794483
0.0897013908 0.0897013908 0.0897013908
0.0901233333 0.0901233333 0.0901233333
0.0905452759 0.0905452759 0.0905452759
0.0909672184 0.0909672184 0.0909672184
0.0913891609 0.0913891609 0.0913891609
0.0918111035 0.0918111035 0.0918111035
0.0922330460 0.0922330460 0.0922330460
0.0926549885 0.0926549885 0.0926549885
0.0930769310 0.0930769310 0.0930769310
0.0934988736 0.0934988736 0.0934988736
0.0939208161 0.0939208161 0.0939208161
0.0943427586 0.0943427586 0.0943427586
0.0947647012 0.0947647012 0.0947647012
0.0951866437 0.0951866437 0.0951866437
0.0956085862 0.0956085862 0.0956085862
0.0960305288 0.0960305288 0.0960305288
0.0964524713 0.0964524713 0.0964524713
0.0968744138 0.0968744138 0.0968744138
0.0972963564 0.0972963564 0.0972963564
0.0977182989 0.0977182989 0.0977182989
0.0981402414 0.0981402414 0.0981402414
0.0985621840 0.0985621840 0.0985621840
0.0989841265 0.0989841265 0.0989841265
0.0994060690 0.0994060690 0.0994060690
0.0998280116 0.0998280116 0.0998280116
0.1002499541 0.1002499541 0.1002499541
0.1006718966 0.1006718966 0.1006718966
0.1011087850 0.1011087850 0.1011087850
0.1016104383 0.1016104383 0.1016104383
0.1021120917 0.1021120917 0.1021120917
0.1026137451 0.1026137451 0.1026137451
0.1031153985 0.1031153985 0.1031153985
0.1036170518 0.1036170518 0.1036170518
0.1041187052 0.1041187052 0.1041187052
0.1046203586 0.1046203586 0.1046203586
0.1051220120 0.1051220120 0.1051220120
0.1056236653 0.1056236653 0.1056236653
0.1061253187 0.1061253187 0.1061253187
0.1066269721 0.1066269721 0.1066269721
0.1071286255 0.1071286255 0.1071286255
0.1076302788 0.1076302788 0.1076302788
0.1081319322 0.1081319322 0.1081319322
0.1086335856 0.1086335856 0.1086335856
0.1091352390 0.1091352390 0.1091352390
0.1096368923 0.1096368923 0.1096368923
0.1101385457 0.1101385457 0.1101385457
0.1106401991 0.1106401991 0.1106401991
0.1111418525 0.1111418525 0.1111418525
0.1116435058 0.1116435058 0.1116435058
0.1121451592 0.1121451592 0.1121451592
0.1126468126 0.1126468126 0.1126468126
0.1131484659 0.1131484659 0.1131484659
0.1136501193 0.1136501193 0.1136501193
0.1141517727 0.1141517727 0.1141517727
0.1146534261 0.1146534261 0.1146534261
0.1151550794 0.1151550794 0.1151550794
0.1156567328 0.1156567328 0.1156567328
0.1161583862 0.1161583862 0.1161583862
0.1166600396 0.1166600396 0.1166600396
0.1171854995 0.1171854995 0.1171854995
0.1177959797 0.1177959797 0.1177959797
0.1184064599 0.1184064599 0.1184064599
0.1190169401 0.1190169401 0.1190169401
0.1196274204 0.1196274204 0.1196274204
0.1202379006 0.1202379006 0.1202379006
0.1208483808 0.1208483808 0.1208483808
0.1214588610 0.1214588610 0.1214588610
0.1220693412 0.1220693412 0.1220693412
0.1226798214 0.1226798214 0.1226798214
0.1232903016 0.1232903016 0.1232903016
0.1239007818 0.1239007818 0.1239007818
0.1245112620 0.1245112620 0.1245112620
0.1251217423 0.1251217423 0.1251217423
0.1257322225 0.1257322225 0.1257322225
0.1263427027 0.1263427027 0.1263427027
0.1269531829 0.1269531829 0.1269531829
0.1275636631 0.1275636631 0.1275636631
0.1281741433 0.1281741433 0.1281741433
0.1287846235 0.1287846235 0.1287846235
0.1293951037 0.1293951037 0.1293951037
0.1300055839 0.1300055839 0.1300055839
0.1306160641 0.1306160641 0.1306160641
0.1312265444 0.1312265444 0.1312265444
0.1318370246 0.1318370246 0.1318370246
0.1324475048 0.1324475048 0.1324475048
0.1330579850 0.1330579850 0.1330579850
0.1336684652 0.1336684652 0.1336684652
0.1342789454 0.1342789454 0.1342789454
0.1348894256 0.1348894256 0.1348894256
0.1354999058 0.1354999058 0.1354999058
0.1361103860 0.1361103860 0.1361103860
0.1367567837 0.1367567837 0.1367567837
0.1375109344 0.1375109344 0.1375109344
0.1382650851 0.1382650851 0.1382650851
0.1390192358 0.1390192358 0.1390192358
0.1397733865 0.1397733865 0.1397733865
0.1405275372 0.1405275372 0.1405275372
0.1412816879 0.1412816879 0.1412816879
0.1420358386 0.1420358386 0.1420358386
0.1427899893 0.1427899893 0.1427899893
0.1435441400 0.1435441400 0.1435441400
0.1442982908 0.1442982908 0.1442982908
0.1450524415 0.1450524415 0.1450524415
0.1458065922 0.1458065922 0.1458065922
0.1465607429 0.1465607429 0.1465607429
0.1473148936 0.1473148936 0.1473148936
0.1480690443 0.1480690443 0.1480690443
0.1488231950 0.1488231950 0.1488231950
0.1495773457 0.1495773457 0.1495773457
0.1503314964 0.1503314964 0.1503314964
0.1510856472 0.1510856472 0.1510856472
0.1518397979 0.1518397979 0.1518397979
0.1525939486 0.1525939486 0.1525939486
0.1533480993 0.1533480993 0.1533480993
0.1541022500 0.1541022500 0.1541022500
0.1548564007 0.1548564007 0.1548564007
0.1556105514 0.1556105514 0.1556105514
0.1563647021 0.1563647021 0.1563647021
0.1571188528 0.1571188528 0.1571188528
0.1578730035 0.1578730035 0.1578730035
0.1586271543 0.1586271543 0.1586271543
0.1593813050 0.1593813050 0.1593813050
0.1601354557 0.1601354557 0.1601354557
0.1609349798 0.1609349798 0.1609349798
0.1618504615 0.1618504615 0.1618504615
0.1627659431 0.1627659431 0.1627659431
0.1636814248 0.1636814248 0.1636814248
0.1645969064 0.1645969064 0.1645969064
0.1655123881 0.1655123881 0.1655123881
0.1664278698 0.1664278698 0.1664278698
0.1673433514 0.1673433514 0.1673433514
0.1682588331 0.1682588331 0.1682588331
0.1691743148 0.1691743148 0.1691743148
0.1700897964 0.1700897964 0.1700897964
0.1710052781 0.1710052781 0.1710052781
0.1719207598 0.1719207598 0.1719207598
0.1728362414 0.1728362414 0.1728362414
0.1737517231 0.1737517231 0.1737517231
0.1746672048 0.1746672048 0.1746672048
0.1755826864 0.1755826864 0.1755826864
0.1764981681 0.1764981681 0.1764981681
0.1774136497 0.1774136497 0.1774136497
0.1783291314 0.1783291314 0.1783291314
0.1792446131 0.1792446131 0.1792446131
0.1801600947 0.1801600947 0.1801600947
0.1810755764 0.1810755764 0.1810755764
0.1819910581 0.1819910581 0.1819910581
0.1829065397 0.1829065397 0.1829065397
0.1838220214 0.1838220214 0.1838220214
0.1847375031 0.1847375031 0.1847375031
0.1856529847 0.1856529847 0.1856529847
0.1865684664 0.1865684664 0.1865684664
0.1874839481 0.1874839481 0.1874839481
0.1883994297 0.1883994297 0.1883994297
0.1893149114 0.1893149114 0.1893149114
0.1902905039 0.1902905039 0.1902905039
0.1913983417 0.1913983417 0.1913983417
0.1925061795 0.1925061795 0.1925061795
0.1936140173 0.1936140173 0.1936140173
0.1947218551 0.1947218551 0.1947218551
0.1958296929 0.1958296929 0.1958296929
0.1969375307 0.1969375307 0.1969375307
0.1980453685 0.1980453685 0.1980453685
0.1991532063 0.1991532063 0.1991532063
0.2002610441 0.2002610441 0.2002610441
0.2013688819 0.2013688819 0.2013688819
0.2024767197 0.2024767197 0.2024767197
0.2035845574 0.2035845574 0.2035845574
0.2046923952 0.2046923952 0.2046923952
0.2058002330 0.2058002330 0.2058002330
0.2069080708 0.2069080708 0.2069080708
0.2080159086 0.2080159086 0.2080159086
0.2091237464 0.2091237464 0.2091237464
0.2102315842 0.2102315842 0.2102315842
0.2113394220 0.2113394220 0.2113394220
0.2124472598 0.2124472598 0.2124472598
0.2135550976 0.2135550976 0.2135550976
0.2146629354 0.2146629354 0.2146629354
0.2157707732 0.2157707732 0.2157707732
0.2168786110 0.2168786110 0.2168786110
0.2179864488 0.2179864488 0.2179864488
0.2190942866 0.2190942866 0.2190942866
0.2202021244 0.2202021244 0.2202021244
0.2213099622 0.2213099622 0.2213099622
0.2224178000 0.2224178000 0.2224178000
0.2235256378 0.2235256378 0.2235256378
0.2246334756 0.2246334756 0.2246334756
0.2258172806 0.2258172806 0.2258172806
0.2271461132 0.2271461132 0.2271461132
0.2284749458 0.2284749458 0.2284749458
0.2298037784 0.2298037784 0.2298037784
0.2311326110 0.2311326110 0.2311326110
0.2324614436 0.2324614436 0.2324614436
0.2337902762 0.2337902762 0.2337902762
0.2351191087 0.2351191087 0.2351191087
0.2364479413 0.2364479413 0.2364479413
0.2377767739 0.2377767739 0.2377767739
0.2391056065 0.2391056065 0.2391056065
0.2404344391 0.2404344391 0.2404344391
0.2417632717 0.2417632717 0.2417632717
0.2430921043 0.2430921043 0.2430921043
0.2444209369 0.2444209369 0.2444209369
0.2457497695 0.2457497695 0.2457497695
0.2470786021 0.2470786021 0.2470786021
0.2484074347 0.2484074347 0.2484074347
0.2497362673 0.2497362673 0.2497362673
0.2510650999 0.2510650999 0.2510650999
0.2523939325 0.2523939325 0.2523939325
0.2537227650 0.2537227650 0.2537227650
0.2550515976 0.2550515976 0.2550515976
0.2563804302 0.2563804302 0.2563804302
0.2577092628 0.2577092628 0.2577092628
0.2590380954 0.2590380954 0.2590380954
0.2603669280 0.2603669280 0.2603669280
0.2616957606 0.2616957606 0.2616957606
0.2630245932 0.2630245932 0.2630245932
0.2643534258 0.2643534258 0.2643534258
0.2656822584 0.2656822584 0.2656822584
0.2670110910 0.2670110910 0.2670110910
0.2684344311 0.2684344311 0.2684344311
0.2700152836 0.2700152836 0.2700152836
0.2715961362 0.2715961362 0.2715961362
0.2731769888 0.2731769888 0.2731769888
0.2747578413 0.2747578413 0.2747578413
0.2763386939 0.2763386939 0.2763386939
0.2779195465 0.2779195465 0.2779195465
0.2795003990 0.2795003990 0.2795003990
0.2810812516 0.2810812516 0.2810812516
0.2826621042 0.2826621042 0.2826621042
0.2842429567 0.2842429567 0.2842429567
0.2858238093 0.2858238093 0.2858238093
0.2874046619 0.2874046619 0.2874046619
0.2889855144 0.2889855144 0.2889855144
0.2905663670 0.2905663670 0.2905663670
0.2921472196 0.2921472196 0.2921472196
0.2937280721 0.2937280721 0.2937280721
0.2953089247 0.2953089247 0.2953089247
0.2968897773 0.2968897773 0.2968897773
0.2984706298 0.2984706298 0.2984706298
0.3000514824 0.3000514824 0.3000514824
0.3016323350 0.3016323350 0.3016323350
0.3032131875 0.3032131875 0.3032131875
0.3047940401 0.3047940401 0.3047940401
0.3063748927 0.3063748927 0.3063748927
0.3079557452 0.3079557452 0.3079557452
0.3095365978 0.3095365978 0.3095365978
0.3111174504 0.3111174504 0.3111174504
0.3126983029 0.3126983029 0.3126983029
0.3142791555 0.3142791555 0.3142791555
0.3158600081 0.3158600081 0.3158600081
0.3174408607 0.3174408607 0.3174408607
0.3191382516 0.3191382516 0.3191382516
0.3210059679 0.3210059679 0.3210059679
0.3228736841 0.3228736841 0.3228736841
0.3247414004 0.3247414004 0.3247414004
0.3266091167 0.3266091167 0.3266091167
0.3284768329 0.3284768329 0.3284768329
0.3303445492 0.3303445492 0.3303445492
0.3322122655 0.3322122655 0.3322122655
0.3340799817 0.3340799817 0.3340799817
0.3359476980 0.3359476980 0.3359476980
0.3378154142 0.3378154142 0.3378154142
0.3396831305 0.3396831305 0.3396831305
0.3415508468 0.3415508468 0.3415508468
0.3434185630 0.3434185630 0.3434185630
0.3452862793 0.3452862793 0.3452862793
0.3471539956 0.3471539956 0.3471539956
0.3490217118 0.3490217118 0.3490217118
0.3508894281 0.3508894281 0.3508894281
0.3527571443 0.3527571443 0.3527571443
0.3546248606 0.3546248606 0.3546248606
0.3564925769 0.3564925769 0.3564925769
0.3583602931 0.3583602931 0.3583602931
0.3602280094 0.3602280094 0.3602280094
0.3620957257 0.3620957257 0.3620957257
0.3639634419 0.3639634419 0.3639634419
0.3658311582 0.3658311582 0.3658311582
0.3676988745 0.3676988745 0.3676988745
0.3695665907 0.3695665907 0.3695665907
0.3714343070 0.3714343070 0.3714343070
0.3733020232 0.3733020232 0.3733020232
0.3751697395 0.3751697395 0.3751697395
0.3770374558 0.3770374558 0.3770374558
0.3790348497 0.3790348497 0.3790348497
0.3811989759 0.3811989759 0.3811989759
0.3833631020 0.3833631020 0.3833631020
0.3855272282 0.3855272282 0.3855272282
0.3876913543 0.3876913543 0.3876913543
0.3898554805 0.3898554805 0.3898554805
0.3920196066 0.3920196066 0.3920196066
0.3941837327 0.3941837327 0.3941837327
0.3963478589 0.3963478589 0.3963478589
0.3985119850 0.3985119850 0.3985119850
0.4006761112 0.4006761112 0.4006761112
0.4028402373 0.4028402373 0.4028402373
0.4050043634 0.4050043634 0.4050043634
0.4071684896 0.4071684896 0.4071684896
0.4093326157 0.4093326157 0.4093326157
0.4114967419 0.4114967419 0.4114967419
0.4136608680 0.4136608680 0.4136608680
0.4158249942 0.4158249942 0.4158249942
0.4179891203 0.4179891203 0.4179891203
0.4201532464 0.4201532464 0.4201532464
0.4223173726 0.4223173726 0.4223173726
0.4244814987 0.4244814987 0.4244814987
0.4266456249 0.4266456249 0.4266456249
0.4288097510 0.4288097510 0.4288097510
0.4309738771 0.4309738771 0.4309738771
0.4331380033 0.4331380033 0.4331380033
0.4353021294 0.4353021294 0.4353021294
0.4374662556 0.4374662556 0.4374662556
0.4396303817 0.4396303817 0.4396303817
0.4417945079 0.4417945079 0.4417945079
0.4439586340 0.4439586340 0.4439586340
0.4461227601 0.4461227601 0.4461227601
0.4483101528 0.4483101528 0.4483101528
0.4505239192 0.4505239192 0.4505239192
0.4527376856 0.4527376856 0.4527376856
0.4549514520 0.4549514520 0.4549514520
0.4571652184 0.4571652184 0.4571652184
0.4593789847 0.4593789847 0.4593789847
0.4615927511 0.4615927511 0.4615927511
0.4638065175 0.4638065175 0.4638065175
0.4660202839 0.4660202839 0.4660202839
0.4682340503 0.4682340503 0.4682340503
0.4704478166 0.4704478166 0.4704478166
0.4726615830 0.4726615830 0.4726615830
0.4748753494 0.4748753494 0.4748753494
0.4770891158 0.4770891158 0.4770891158
0.4793028822 0.4793028822 0.4793028822
0.4815166485 0.4815166485 0.4815166485
0.4837304149 0.4837304149 0.4837304149
0.4859441813 0.4859441813 0.4859441813
0.4881579477 0.4881579477 0.4881579477
0.4903717141 0.4903717141 0.4903717141
0.4925854805 0.4925854805 0.4925854805
0.4947992468 0.4947992468 0.4947992468
0.4970130132 0.4970130132 0.4970130132
0.4992267796 0.4992267796 0.4992267796
0.5014405460 0.5014405460 0.5014405460
0.5036543124 0.5036543124 0.5036543124
0.5058680787 0.5058680787 0.5058680787
0.5080818451 0.5080818451 0.5080818451
0.5102956115 0.5102956115 0.5102956115
0.5125093779 0.5125093779 0.5125093779
0.5147231443 0.5147231443 0.5147231443
0.5169369107 0.5169369107 0.5169369107
0.5192826529 0.5192826529 0.5192826529
0.5217603720 0.5217603720 0.5217603720
0.5242380910 0.5242380910 0.5242380910
0.5267158101 0.5267158101 0.5267158101
0.5291935291 0.5291935291 0.5291935291
0.5316712482 0.5316712482 0.5316712482
0.5341489672 0.5341489672 0.5341489672
0.5366266863 0.5366266863 0.5366266863
0.5391044054 0.5391044054 0.5391044054
0.5415821244 0.5415821244 0.5415821244
0.5440598435 0.5440598435 0.5440598435
0.5465375625 0.5465375625 0.5465375625
0.5490152816 0.5490152816 0.5490152816
0.5514930006 0.5514930006 0.5514930006
0.5539707197 0.5539707197 0.5539707197
0.5564484387 0.5564484387 0.5564484387
0.5589261578 0.5589261578 0.5589261578
0.5614038768 0.5614038768 0.5614038768
0.5638815959 0.5638815959 0.5638815959
0.5663593150 0.5663593150 0.5663593150
0.5688370340 0.5688370340 0.5688370340
0.5713147531 0.5713147531 0.5713147531
0.5737924721 0.5737924721 0.5737924721
0.5762701912 0.5762701912 0.5762701912
0.5787479102 0.5787479102 0.5787479102
0.5812256293 0.5812256293 0.5812256293
0.5837033483 0.5837033483 0.5837033483
0.5861810674 0.5861810674 0.5861810674
0.5886587864 0.5886587864 0.5886587864
0.5911365055 0.5911365055 0.5911365055
0.5936142245 0.5936142245 0.5936142245
0.5960919436 0.5960919436 0.5960919436
0.5984667145 0.5984667145 0.5984667145
0.6007506456 0.6007506456 0.6007506456
0.6030345767 0.6030345767 0.6030345767
0.6053185079 0.6053185079 0.6053185079
0.6076024390 0.6076024390 0.6076024390
0.6098863701 0.6098863701 0.6098863701
0.6121703012 0.6121703012 0.6121703012
0.6144542324 0.6144542324 0.6144542324
0.6167381635 0.6167381635 0.6167381635
0.6190220946 0.6190220946 0.6190220946
0.6213060258 0.6213060258 0.6213060258
0.6235899569 0.6235899569 0.6235899569
0.6258738880 0.6258738880 0.6258738880
0.6281578191 0.6281578191 0.6281578191
0.6304417503 0.6304417503 0.6304417503
0.6327256814 0.6327256814 0.6327256814
0.6350096125 0.6350096125 0.6350096125
0.6372935436 0.6372935436 0.6372935436
0.6395774748 0.6395774748 0.6395774748
0.6418614059 0.6418614059 0.6418614059
0.6441453370 0.6441453370 0.6441453370
0.6464292682 0.6464292682 0.6464292682
0.6487131993 0.6487131993 0.6487131993
0.6509971304 0.6509971304 0.6509971304
0.6532810615 0.6532810615 0.6532810615
0.6555649927 0.6555649927 0.6555649927
0.6578489238 0.6578489238 0.6578489238
0.6601328549 0.6601328549 0.6601328549
0.6624167861 0.6624167861 0.6624167861
0.6647007172 0.6647007172 0.6647007172
0.6669846483 0.6669846483 0.6669846483
0.6692685794 0.6692685794 0.6692685794
0.6714628323 0.6714628323 0.6714628323
0.6735873416 0.6735873416 0.6735873416
0.6757118508 0.6757118508 0.6757118508
0.6778363601 0.6778363601 0.6778363601
0.6799608694 0.6799608694 0.6799608694
0.6820853787 0.6820853787 0.6820853787
0.6842098879 0.6842098879 0.6842098879
0.6863343972 0.6863343972 0.6863343972
0.6884589065 0.6884589065 0.6884589065
0.6905834157 0.6905834157 0.6905834157
0.6927079250 0.6927079250 0.6927079250
0.6948324343 0.6948324343 0.6948324343
0.6969569435 0.6969569435 0.6969569435
0.6990814528 0.6990814528 0.6990814528
0.7012059621 0.7012059621 0.7012059621
0.7033304714 0.7033304714 0.7033304714
0.7054549806 0.7054549806 0.7054549806
0.7075794899 0.7075794899 0.7075794899
0.7097039992 0.7097039992 0.7097039992
0.7118285084 0.7118285084 0.7118285084
0.7139530177 0.7139530177 0.7139530177
0.7160775270 0.7160775270 0.7160775270
0.7182020363 0.7182020363 0.7182020363
0.7203265455 0.7203265455 0.7203265455
0.7224510548 0.7224510548 0.7224510548
0.7245755641 0.7245755641 0.7245755641
0.7267000733 0.7267000733 0.7267000733
0.7288245826 0.7288245826 0.7288245826
0.7309490919 0.7309490919 0.7309490919
0.7330736011 0.7330736011 0.7330736011
0.7351981104 0.7351981104 0.7351981104
0.7373226197 0.7373226197 0.7373226197
0.7392819057 0.7392819057 0.7392819057
0.7411281429 0.7411281429 0.7411281429
0.7429743802 0.7429743802 0.7429743802
