Masters/REDlogFilm_to_REDgamma4.cube
TITLE "REDLogFilm_to_REDgamma4"
# Created by Tashi Trieu and Greg Cotten

LUT_1D_SIZE 1024
LUT_1D_INPUT_RANGE 0.000000 1.000000

0.0000000000 0.0000000000 0.0000000000
0.0000152590 0.0000152590 0.0000152590
0.0000305180 0.0000305180 0.0000305180
0.0000457771 0.0000457771 0.0000457771
0.0000610361 0.0000610361 0.0000610361
0.0000762951 0.0000762951 0.0000762951
0.0000915541 0.0000915541 0.0000915541
0.0001068132 0.0001068132 0.0001068132
0.0001220722 0.0001220722 0.0001220722
0.0001525902 0.0001525902 0.0001525902
0.0001678492 0.0001678492 0.0001678492
0.0001831083 0.0001831083 0.0001831083
0.0001983673 0.0001983673 0.0001983673
0.0002136263 0.0002136263 0.0002136263
0.0002288853 0.0002288853 0.0002288853
0.0002441444 0.0002441444 0.0002441444
0.0002594034 0.0002594034 0.0002594034
0.0002899214 0.0002899214 0.0002899214
0.0003051804 0.0003051804 0.0003051804
0.0003204395 0.0003204395 0.0003204395
0.0003356985 0.0003356985 0.0003356985
0.0003509575 0.0003509575 0.0003509575
0.0003662165 0.0003662165 0.0003662165
0.0003814755 0.0003814755 0.0003814755
0.0003967346 0.0003967346 0.0003967346
0.0004119936 0.0004119936 0.0004119936
0.0004425116 0.0004425116 0.0004425116
0.0004577707 0.0004577707 0.0004577707
0.0004730297 0.0004730297 0.0004730297
0.0004882887 0.0004882887 0.0004882887
0.0005035477 0.0005035477 0.0005035477
0.0005188067 0.0005188067 0.0005188067
0.0005340658 0.0005340658 0.0005340658
0.0005493248 0.0005493248 0.0005493248
0.0005798428 0.0005798428 0.0005798428
0.0005951019 0.0005951019 0.0005951019
0.0006103609 0.0006103609 0.0006103609
0.0006256199 0.0006256199 0.0006256199
0.0006408789 0.0006408789 0.0006408789
0.0006561379 0.0006561379 0.0006561379
0.0006713970 0.0006713970 0.0006713970
0.0006866560 0.0006866560 0.0006866560
0.0007171740 0.0007171740 0.0007171740
0.0007324331 0.0007324331 0.0007324331
0.0007476921 0.0007476921 0.0007476921
0.0007629511 0.0007629511 0.0007629511
0.0007782101 0.0007782101 0.0007782101
0.0007934691 0.0007934691 0.0007934691
0.0008087282 0.0008087282 0.0008087282
0.0008239872 0.0008239872 0.0008239872
0.0008392462 0.0008392462 0.0008392462
0.0008697642 0.0008697642 0.0008697642
0.0008850233 0.0008850233 0.0008850233
0.0009002823 0.0009002823 0.0009002823
0.0009155413 0.0009155413 0.0009155413
0.0009308003 0.0009308003 0.0009308003
0.0009460594 0.0009460594 0.0009460594
0.0009613184 0.0009613184 0.0009613184
0.0010528725 0.0010528725 0.0010528725
0.0011596857 0.0011596857 0.0011596857
0.0012664988 0.0012664988 0.0012664988
0.0013733120 0.0013733120 0.0013733120
0.0014953841 0.0014953841 0.0014953841
0.0016021973 0.0016021973 0.0016021973
0.0017090105 0.0017090105 0.0017090105
0.0018158236 0.0018158236 0.0018158236
0.0019226368 0.0019226368 0.0019226368
0.0020599680 0.0020599680 0.0020599680
0.0022125582 0.0022125582 0.0022125582
0.0023651484 0.0023651484 0.0023651484
0.0025177386 0.0025177386 0.0025177386
0.0026703288 0.0026703288 0.0026703288
0.0028076600 0.0028076600 0.0028076600
0.0029755093 0.0029755093 0.0029755093
0.0031586175 0.0031586175 0.0031586175
0.0033264668 0.0033264668 0.0033264668
0.0035095750 0.0035095750 0.0035095750
0.0036926833 0.0036926833 0.0036926833
0.0038757916 0.0038757916 0.0038757916
0.0040741588 0.0040741588 0.0040741588
0.0042877852 0.0042877852 0.0042877852
0.0044861524 0.0044861524 0.0044861524
0.0046997787 0.0046997787 0.0046997787
0.0049134051 0.0049134051 0.0049134051
0.0051422904 0.0051422904 0.0051422904
0.0053711757 0.0053711757 0.0053711757
0.0056000610 0.0056000610 0.0056000610
0.0058442054 0.0058442054 0.0058442054
0.0060883497 0.0060883497 0.0060883497
0.0063477531 0.0063477531 0.0063477531
0.0066071565 0.0066071565 0.0066071565
0.0068665599 0.0068665599 0.0068665599
0.0071412222 0.0071412222 0.0071412222
0.0074158846 0.0074158846 0.0074158846
0.0076905470 0.0076905470 0.0076905470
0.0079804685 0.0079804685 0.0079804685
0.0082703899 0.0082703899 0.0082703899
0.0085755703 0.0085755703 0.0085755703
0.0088807507 0.0088807507 0.0088807507
0.0092011902 0.0092011902 0.0092011902
0.0095216297 0.0095216297 0.0095216297
0.0098573281 0.0098573281 0.0098573281
0.0102082856 0.0102082856 0.0102082856
0.0105439841 0.0105439841 0.0105439841
0.0108949416 0.0108949416 0.0108949416
0.0112611582 0.0112611582 0.0112611582
0.0116273747 0.0116273747 0.0116273747
0.0119935912 0.0119935912 0.0119935912
0.0123750668 0.0123750668 0.0123750668
0.0127565423 0.0127565423 0.0127565423
0.0131532769 0.0131532769 0.0131532769
0.0135500114 0.0135500114 0.0135500114
0.0139467460 0.0139467460 0.0139467460
0.0143434806 0.0143434806 0.0143434806
0.0147554742 0.0147554742 0.0147554742
0.0151522087 0.0151522087 0.0151522087
0.0155642023 0.0155642023 0.0155642023
0.0159914549 0.0159914549 0.0159914549
0.0164034485 0.0164034485 0.0164034485
0.0168307012 0.0168307012 0.0168307012
0.0172579538 0.0172579538 0.0172579538
0.0176852064 0.0176852064 0.0176852064
0.0181124590 0.0181124590 0.0181124590
0.0185549706 0.0185549706 0.0185549706
0.0189822232 0.0189822232 0.0189822232
0.0194247349 0.0194247349 0.0194247349
0.0198672465 0.0198672465 0.0198672465
0.0203097581 0.0203097581 0.0203097581
0.0207522698 0.0207522698 0.0207522698
0.0211795224 0.0211795224 0.0211795224
0.0216372930 0.0216372930 0.0216372930
0.0220798047 0.0220798047 0.0220798047
0.0225375753 0.0225375753 0.0225375753
0.0229800870 0.0229800870 0.0229800870
0.0234378576 0.0234378576 0.0234378576
0.0238803693 0.0238803693 0.0238803693
0.0243381399 0.0243381399 0.0243381399
0.0248111696 0.0248111696 0.0248111696
0.0252689403 0.0252689403 0.0252689403
0.0257267109 0.0257267109 0.0257267109
0.0261997406 0.0261997406 0.0261997406
0.0266880293 0.0266880293 0.0266880293
0.0271610590 0.0271610590 0.0271610590
0.0276340887 0.0276340887 0.0276340887
0.0281223774 0.0281223774 0.0281223774
0.0286106661 0.0286106661 0.0286106661
0.0290989548 0.0290989548 0.0290989548
0.0296025025 0.0296025025 0.0296025025
0.0301060502 0.0301060502 0.0301060502
0.0306095979 0.0306095979 0.0306095979
0.0311284047 0.0311284047 0.0311284047
0.0316472114 0.0316472114 0.0316472114
0.0321812772 0.0321812772 0.0321812772
0.0327000839 0.0327000839 0.0327000839
0.0332494087 0.0332494087 0.0332494087
0.0337834745 0.0337834745 0.0337834745
0.0343327993 0.0343327993 0.0343327993
0.0348821241 0.0348821241 0.0348821241
0.0354467079 0.0354467079 0.0354467079
0.0360112917 0.0360112917 0.0360112917
0.0365911345 0.0365911345 0.0365911345
0.0371709773 0.0371709773 0.0371709773
0.0377660792 0.0377660792 0.0377660792
0.0383611810 0.0383611810 0.0383611810
0.0389410239 0.0389410239 0.0389410239
0.0395513848 0.0395513848 0.0395513848
0.0401617456 0.0401617456 0.0401617456
0.0407721065 0.0407721065 0.0407721065
0.0413824674 0.0413824674 0.0413824674
0.0420080873 0.0420080873 0.0420080873
0.0426337072 0.0426337072 0.0426337072
0.0432745861 0.0432745861 0.0432745861
0.0439002060 0.0439002060 0.0439002060
0.0445410849 0.0445410849 0.0445410849
0.0451972229 0.0451972229 0.0451972229
0.0458533608 0.0458533608 0.0458533608
0.0465094987 0.0465094987 0.0465094987
0.0471808957 0.0471808957 0.0471808957
0.0478370336 0.0478370336 0.0478370336
0.0485236896 0.0485236896 0.0485236896
0.0492103456 0.0492103456 0.0492103456
0.0498970016 0.0498970016 0.0498970016
0.0505836576 0.0505836576 0.0505836576
0.0512703136 0.0512703136 0.0512703136
0.0519874876 0.0519874876 0.0519874876
0.0526894026 0.0526894026 0.0526894026
0.0533913176 0.0533913176 0.0533913176
0.0541237507 0.0541237507 0.0541237507
0.0548409247 0.0548409247 0.0548409247
0.0555733577 0.0555733577 0.0555733577
0.0563057908 0.0563057908 0.0563057908
0.0570534829 0.0570534829 0.0570534829
0.0578011749 0.0578011749 0.0578011749
0.0585336080 0.0585336080 0.0585336080
0.0592965591 0.0592965591 0.0592965591
0.0600595102 0.0600595102 0.0600595102
0.0608224613 0.0608224613 0.0608224613
0.0616006714 0.0616006714 0.0616006714
0.0623788815 0.0623788815 0.0623788815
0.0631570916 0.0631570916 0.0631570916
0.0639353017 0.0639353017 0.0639353017
0.0647287709 0.0647287709 0.0647287709
0.0655222400 0.0655222400 0.0655222400
0.0663309682 0.0663309682 0.0663309682
0.0671244373 0.0671244373 0.0671244373
0.0679484245 0.0679484245 0.0679484245
0.0687724117 0.0687724117 0.0687724117
0.0695963989 0.0695963989 0.0695963989
0.0704203861 0.0704203861 0.0704203861
0.0712596323 0.0712596323 0.0712596323
0.0720988785 0.0720988785 0.0720988785
0.0729381247 0.0729381247 0.0729381247
0.0737926299 0.0737926299 0.0737926299
0.0746623941 0.0746623941 0.0746623941
0.0755321584 0.0755321584 0.0755321584
0.0764019226 0.0764019226 0.0764019226
0.0772869459 0.0772869459 0.0772869459
0.0781567102 0.0781567102 0.0781567102
0.0790569924 0.0790569924 0.0790569924
0.0799420157 0.0799420157 0.0799420157
0.0808575570 0.0808575570 0.0808575570
0.0817578393 0.0817578393 0.0817578393
0.0826886397 0.0826886397 0.0826886397
0.0836041810 0.0836041810 0.0836041810
0.0845349813 0.0845349813 0.0845349813
0.0854810407 0.0854810407 0.0854810407
0.0864271000 0.0864271000 0.0864271000
0.0873884184 0.0873884184 0.0873884184
0.0883497368 0.0883497368 0.0883497368
0.0893110552 0.0893110552 0.0893110552
0.0902876326 0.0902876326 0.0902876326
0.0912642100 0.0912642100 0.0912642100
0.0922560464 0.0922560464 0.0922560464
0.0932478828 0.0932478828 0.0932478828
0.0942397192 0.0942397192 0.0942397192
0.0952468147 0.0952468147 0.0952468147
0.0962539101 0.0962539101 0.0962539101
0.0972762646 0.0972762646 0.0972762646
0.0982986191 0.0982986191 0.0982986191
0.0993362325 0.0993362325 0.0993362325
0.1003585870 0.1003585870 0.1003585870
0.1014114595 0.1014114595 0.1014114595
0.1024490730 0.1024490730 0.1024490730
0.1035019455 0.1035019455 0.1035019455
0.1045700771 0.1045700771 0.1045700771
0.1056382086 0.1056382086 0.1056382086
0.1067063401 0.1067063401 0.1067063401
0.1077744717 0.1077744717 0.1077744717
0.1088578622 0.1088578622 0.1088578622
0.1099412528 0.1099412528 0.1099412528
0.1110246433 0.1110246433 0.1110246433
0.1121080339 0.1121080339 0.1121080339
0.1132066835 0.1132066835 0.1132066835
0.1143205921 0.1143205921 0.1143205921
0.1154345006 0.1154345006 0.1154345006
0.1165484092 0.1165484092 0.1165484092
0.1176623178 0.1176623178 0.1176623178
0.1187762264 0.1187762264 0.1187762264
0.1198901350 0.1198901350 0.1198901350
0.1210345617 0.1210345617 0.1210345617
0.1221637293 0.1221637293 0.1221637293
0.1233234150 0.1233234150 0.1233234150
0.1244678416 0.1244678416 0.1244678416
0.1256275273 0.1256275273 0.1256275273
0.1267719539 0.1267719539 0.1267719539
0.1279316396 0.1279316396 0.1279316396
0.1291065843 0.1291065843 0.1291065843
0.1302815290 0.1302815290 0.1302815290
0.1314564736 0.1314564736 0.1314564736
0.1326466773 0.1326466773 0.1326466773
0.1338368811 0.1338368811 0.1338368811
0.1350270848 0.1350270848 0.1350270848
0.1362325475 0.1362325475 0.1362325475
0.1374380102 0.1374380102 0.1374380102
0.1386434730 0.1386434730 0.1386434730
0.1398641947 0.1398641947 0.1398641947
0.1410849165 0.1410849165 0.1410849165
0.1423056382 0.1423056382 0.1423056382
0.1435416190 0.1435416190 0.1435416190
0.1447928588 0.1447928588 0.1447928588
0.1460288396 0.1460288396 0.1460288396
0.1472648203 0.1472648203 0.1472648203
0.1485160601 0.1485160601 0.1485160601
0.1497825589 0.1497825589 0.1497825589
0.1510490578 0.1510490578 0.1510490578
0.1523002976 0.1523002976 0.1523002976
0.1535820554 0.1535820554 0.1535820554
0.1548638132 0.1548638132 0.1548638132
0.1561455711 0.1561455711 0.1561455711
0.1574273289 0.1574273289 0.1574273289
0.1587243458 0.1587243458 0.1587243458
0.1600213626 0.1600213626 0.1600213626
0.1613336385 0.1613336385 0.1613336385
0.1626459144 0.1626459144 0.1626459144
0.1639581903 0.1639581903 0.1639581903
0.1652857252 0.1652857252 0.1652857252
0.1666132601 0.1666132601 0.1666132601
0.1679407950 0.1679407950 0.1679407950
0.1692988479 0.1692988479 0.1692988479
0.1706416419 0.1706416419 0.1706416419
0.1719844358 0.1719844358 0.1719844358
0.1733424887 0.1733424887 0.1733424887
0.1747005417 0.1747005417 0.1747005417
0.1760585946 0.1760585946 0.1760585946
0.1774319066 0.1774319066 0.1774319066
0.1788052186 0.1788052186 0.1788052186
0.1801785306 0.1801785306 0.1801785306
0.1815671015 0.1815671015 0.1815671015
0.1829556725 0.1829556725 0.1829556725
0.1843442435 0.1843442435 0.1843442435
0.1857480735 0.1857480735 0.1857480735
0.1871366445 0.1871366445 0.1871366445
0.1885404746 0.1885404746 0.1885404746
0.1899443046 0.1899443046 0.1899443046
0.1913633936 0.1913633936 0.1913633936
0.1927824826 0.1927824826 0.1927824826
0.1941863127 0.1941863127 0.1941863127
0.1956206607 0.1956206607 0.1956206607
0.1970397498 0.1970397498 0.1970397498
0.1984740978 0.1984740978 0.1984740978
0.1999084459 0.1999084459 0.1999084459
0.2013275349 0.2013275349 0.2013275349
0.2027771420 0.2027771420 0.2027771420
0.2042114900 0.2042114900 0.2042114900
0.2056763561 0.2056763561 0.2056763561
0.2071259632 0.2071259632 0.2071259632
0.2085908293 0.2085908293 0.2085908293
0.2100556954 0.2100556954 0.2100556954
0.2115205615 0.2115205615 0.2115205615
0.2130006867 0.2130006867 0.2130006867
0.2144808118 0.2144808118 0.2144808118
0.2159456779 0.2159456779 0.2159456779
0.2174410620 0.2174410620 0.2174410620
0.2189211872 0.2189211872 0.2189211872
0.2204318303 0.2204318303 0.2204318303
0.2219272145 0.2219272145 0.2219272145
0.2234225986 0.2234225986 0.2234225986
0.2249332418 0.2249332418 0.2249332418
0.2264286259 0.2264286259 0.2264286259
0.2279545281 0.2279545281 0.2279545281
0.2294651713 0.2294651713 0.2294651713
0.2309910735 0.2309910735 0.2309910735
0.2325017166 0.2325017166 0.2325017166
0.2340428779 0.2340428779 0.2340428779
0.2355535210 0.2355535210 0.2355535210
0.2370946822 0.2370946822 0.2370946822
0.2386205844 0.2386205844 0.2386205844
0.2401617456 0.2401617456 0.2401617456
0.2417029068 0.2417029068 0.2417029068
0.2432288090 0.2432288090 0.2432288090
0.2447852293 0.2447852293 0.2447852293
0.2463263905 0.2463263905 0.2463263905
0.2478828107 0.2478828107 0.2478828107
0.2494392309 0.2494392309 0.2494392309
0.2509803922 0.2509803922 0.2509803922
0.2525520714 0.2525520714 0.2525520714
0.2541084916 0.2541084916 0.2541084916
0.2556801709 0.2556801709 0.2556801709
0.2572518502 0.2572518502 0.2572518502
0.2588235294 0.2588235294 0.2588235294
0.2603952087 0.2603952087 0.2603952087
0.2619821469 0.2619821469 0.2619821469
0.2635538262 0.2635538262 0.2635538262
0.2651560235 0.2651560235 0.2651560235
0.2667277028 0.2667277028 0.2667277028
0.2683299001 0.2683299001 0.2683299001
0.2699168383 0.2699168383 0.2699168383
0.2715190356 0.2715190356 0.2715190356
0.2731212329 0.2731212329 0.2731212329
0.2747234302 0.2747234302 0.2747234302
0.2763408865 0.2763408865 0.2763408865
0.2779430838 0.2779430838 0.2779430838
0.2795605402 0.2795605402 0.2795605402
0.2811779965 0.2811779965 0.2811779965
0.2827954528 0.2827954528 0.2827954528
0.2844281682 0.2844281682 0.2844281682
0.2860456245 0.2860456245 0.2860456245
0.2876935988 0.2876935988 0.2876935988
0.2893110552 0.2893110552 0.2893110552
0.2909437705 0.2909437705 0.2909437705
0.2925917449 0.2925917449 0.2925917449
0.2942397192 0.2942397192 0.2942397192
0.2958724346 0.2958724346 0.2958724346
0.2975356680 0.2975356680 0.2975356680
0.2991836423 0.2991836423 0.2991836423
0.3008316167 0.3008316167 0.3008316167
0.3024948501 0.3024948501 0.3024948501
0.3041580835 0.3041580835 0.3041580835
0.3058213169 0.3058213169 0.3058213169
0.3074998093 0.3074998093 0.3074998093
0.3091783017 0.3091783017 0.3091783017
0.3108567941 0.3108567941 0.3108567941
0.3125200275 0.3125200275 0.3125200275
0.3142137789 0.3142137789 0.3142137789
0.3159075303 0.3159075303 0.3159075303
0.3175860227 0.3175860227 0.3175860227
0.3192797742 0.3192797742 0.3192797742
0.3209735256 0.3209735256 0.3209735256
0.3226825360 0.3226825360 0.3226825360
0.3243762875 0.3243762875 0.3243762875
0.3260852979 0.3260852979 0.3260852979
0.3277943084 0.3277943084 0.3277943084
0.3295033188 0.3295033188 0.3295033188
0.3312123293 0.3312123293 0.3312123293
0.3329365988 0.3329365988 0.3329365988
0.3346608682 0.3346608682 0.3346608682
0.3363851377 0.3363851377 0.3363851377
0.3380941482 0.3380941482 0.3380941482
0.3398184176 0.3398184176 0.3398184176
0.3415579461 0.3415579461 0.3415579461
0.3432822156 0.3432822156 0.3432822156
0.3450064851 0.3450064851 0.3450064851
0.3467460136 0.3467460136 0.3467460136
0.3485008011 0.3485008011 0.3485008011
0.3502403296 0.3502403296 0.3502403296
0.3519798581 0.3519798581 0.3519798581
0.3537041276 0.3537041276 0.3537041276
0.3554589151 0.3554589151 0.3554589151
0.3571984436 0.3571984436 0.3571984436
0.3589532311 0.3589532311 0.3589532311
0.3607080186 0.3607080186 0.3607080186
0.3624475471 0.3624475471 0.3624475471
0.3642175937 0.3642175937 0.3642175937
0.3659723812 0.3659723812 0.3659723812
0.3677271687 0.3677271687 0.3677271687
0.3694819562 0.3694819562 0.3694819562
0.3712520027 0.3712520027 0.3712520027
0.3730220493 0.3730220493 0.3730220493
0.3747920958 0.3747920958 0.3747920958
0.3765621424 0.3765621424 0.3765621424
0.3783321889 0.3783321889 0.3783321889
0.3801174945 0.3801174945 0.3801174945
0.3818875410 0.3818875410 0.3818875410
0.3836881056 0.3836881056 0.3836881056
0.3854734112 0.3854734112 0.3854734112
0.3872587167 0.3872587167 0.3872587167
0.3890440223 0.3890440223 0.3890440223
0.3908445869 0.3908445869 0.3908445869
0.3926298924 0.3926298924 0.3926298924
0.3944457160 0.3944457160 0.3944457160
0.3962462806 0.3962462806 0.3962462806
0.3980621042 0.3980621042 0.3980621042
0.3998779278 0.3998779278 0.3998779278
0.4016784924 0.4016784924 0.4016784924
0.4035095750 0.4035095750 0.4035095750
0.4053253986 0.4053253986 0.4053253986
0.4071717403 0.4071717403 0.4071717403
0.4090028229 0.4090028229 0.4090028229
0.4108339055 0.4108339055 0.4108339055
0.4126802472 0.4126802472 0.4126802472
0.4145265888 0.4145265888 0.4145265888
0.4163881895 0.4163881895 0.4163881895
0.4182497902 0.4182497902 0.4182497902
0.4201266499 0.4201266499 0.4201266499
0.4220035096 0.4220035096 0.4220035096
0.4238956283 0.4238956283 0.4238956283
0.4257877470 0.4257877470 0.4257877470
0.4276798657 0.4276798657 0.4276798657
0.4295719844 0.4295719844 0.4295719844
0.4314641032 0.4314641032 0.4314641032
0.4333714809 0.4333714809 0.4333714809
0.4352788586 0.4352788586 0.4352788586
0.4371862364 0.4371862364 0.4371862364
0.4390936141 0.4390936141 0.4390936141
0.4410162509 0.4410162509 0.4410162509
0.4429236286 0.4429236286 0.4429236286
0.4448310063 0.4448310063 0.4448310063
0.4467383841 0.4467383841 0.4467383841
0.4486305028 0.4486305028 0.4486305028
0.4505378805 0.4505378805 0.4505378805
0.4524452583 0.4524452583 0.4524452583
0.4543526360 0.4543526360 0.4543526360
0.4562447547 0.4562447547 0.4562447547
0.4581368734 0.4581368734 0.4581368734
0.4600442512 0.4600442512 0.4600442512
0.4619211109 0.4619211109 0.4619211109
0.4638132296 0.4638132296 0.4638132296
0.4656900893 0.4656900893 0.4656900893
0.4675516899 0.4675516899 0.4675516899
0.4694132906 0.4694132906 0.4694132906
0.4712748913 0.4712748913 0.4712748913
0.4731212329 0.4731212329 0.4731212329
0.4749523156 0.4749523156 0.4749523156
0.4767833982 0.4767833982 0.4767833982
0.4786144808 0.4786144808 0.4786144808
0.4804303044 0.4804303044 0.4804303044
0.4822308690 0.4822308690 0.4822308690
0.4840466926 0.4840466926 0.4840466926
0.4858472572 0.4858472572 0.4858472572
0.4876478218 0.4876478218 0.4876478218
0.4894331273 0.4894331273 0.4894331273
0.4912336919 0.4912336919 0.4912336919
0.4930342565 0.4930342565 0.4930342565
0.4948195621 0.4948195621 0.4948195621
0.4966048676 0.4966048676 0.4966048676
0.4983901732 0.4983901732 0.4983901732
0.5001907378 0.5001907378 0.5001907378
0.5019913024 0.5019913024 0.5019913024
0.5037918669 0.5037918669 0.5037918669
0.5055924315 0.5055924315 0.5055924315
0.5073929961 0.5073929961 0.5073929961
0.5091935607 0.5091935607 0.5091935607
0.5110093843 0.5110093843 0.5110093843
0.5128404669 0.5128404669 0.5128404669
0.5146715496 0.5146715496 0.5146715496
0.5165026322 0.5165026322 0.5165026322
0.5183489738 0.5183489738 0.5183489738
0.5201953155 0.5201953155 0.5201953155
0.5220569162 0.5220569162 0.5220569162
0.5239185168 0.5239185168 0.5239185168
0.5258106355 0.5258106355 0.5258106355
0.5277027543 0.5277027543 0.5277027543
0.5296101320 0.5296101320 0.5296101320
0.5315327687 0.5315327687 0.5315327687
0.5334554055 0.5334554055 0.5334554055
0.5354085603 0.5354085603 0.5354085603
0.5373617151 0.5373617151 0.5373617151
0.5393453880 0.5393453880 0.5393453880
0.5413138018 0.5413138018 0.5413138018
0.5433127337 0.5433127337 0.5433127337
0.5452964065 0.5452964065 0.5452964065
0.5473105974 0.5473105974 0.5473105974
0.5493095293 0.5493095293 0.5493095293
0.5513389792 0.5513389792 0.5513389792
0.5533531701 0.5533531701 0.5533531701
0.5553826200 0.5553826200 0.5553826200
0.5574120699 0.5574120699 0.5574120699
0.5594415198 0.5594415198 0.5594415198
0.5614709697 0.5614709697 0.5614709697
0.5635004196 0.5635004196 0.5635004196
0.5655146105 0.5655146105 0.5655146105
0.5675440604 0.5675440604 0.5675440604
0.5695582513 0.5695582513 0.5695582513
0.5715877012 0.5715877012 0.5715877012
0.5736018921 0.5736018921 0.5736018921
0.5756160830 0.5756160830 0.5756160830
0.5776150149 0.5776150149 0.5776150149
0.5796139467 0.5796139467 0.5796139467
0.5815976196 0.5815976196 0.5815976196
0.5835812924 0.5835812924 0.5835812924
0.5855649653 0.5855649653 0.5855649653
0.5875181201 0.5875181201 0.5875181201
0.5894712749 0.5894712749 0.5894712749
0.5913939117 0.5913939117 0.5913939117
0.5933165484 0.5933165484 0.5933165484
0.5952391852 0.5952391852 0.5952391852
0.5971465629 0.5971465629 0.5971465629
0.5990539406 0.5990539406 0.5990539406
0.6009460594 0.6009460594 0.6009460594
0.6028381781 0.6028381781 0.6028381781
0.6047302968 0.6047302968 0.6047302968
0.6066224155 0.6066224155 0.6066224155
0.6084992752 0.6084992752 0.6084992752
0.6103608759 0.6103608759 0.6103608759
0.6122377356 0.6122377356 0.6122377356
0.6140993362 0.6140993362 0.6140993362
0.6159609369 0.6159609369 0.6159609369
0.6178072786 0.6178072786 0.6178072786
0.6196536202 0.6196536202 0.6196536202
0.6214999619 0.6214999619 0.6214999619
0.6233463035 0.6233463035 0.6233463035
0.6252079042 0.6252079042 0.6252079042
0.6270389868 0.6270389868 0.6270389868
0.6288853285 0.6288853285 0.6288853285
0.6307164111 0.6307164111 0.6307164111
0.6325474937 0.6325474937 0.6325474937
0.6343785763 0.6343785763 0.6343785763
0.6362096590 0.6362096590 0.6362096590
0.6380407416 0.6380407416 0.6380407416
0.6398718242 0.6398718242 0.6398718242
0.6417029068 0.6417029068 0.6417029068
0.6435339895 0.6435339895 0.6435339895
0.6453650721 0.6453650721 0.6453650721
0.6471961547 0.6471961547 0.6471961547
0.6490119783 0.6490119783 0.6490119783
0.6508430610 0.6508430610 0.6508430610
0.6526741436 0.6526741436 0.6526741436
0.6545204852 0.6545204852 0.6545204852
0.6563515679 0.6563515679 0.6563515679
0.6581826505 0.6581826505 0.6581826505
0.6600137331 0.6600137331 0.6600137331
0.6618448157 0.6618448157 0.6618448157
0.6636758984 0.6636758984 0.6636758984
0.6655069810 0.6655069810 0.6655069810
0.6673380636 0.6673380636 0.6673380636
0.6691691463 0.6691691463 0.6691691463
0.6710002289 0.6710002289 0.6710002289
0.6728313115 0.6728313115 0.6728313115
0.6746471351 0.6746471351 0.6746471351
0.6764782177 0.6764782177 0.6764782177
0.6782787823 0.6782787823 0.6782787823
0.6800946059 0.6800946059 0.6800946059
0.6819256886 0.6819256886 0.6819256886
0.6837415122 0.6837415122 0.6837415122
0.6855420768 0.6855420768 0.6855420768
0.6873579004 0.6873579004 0.6873579004
0.6891584649 0.6891584649 0.6891584649
0.6909590295 0.6909590295 0.6909590295
0.6927595941 0.6927595941 0.6927595941
0.6945448997 0.6945448997 0.6945448997
0.6963454643 0.6963454643 0.6963454643
0.6981307698 0.6981307698 0.6981307698
0.6999008164 0.6999008164 0.6999008164
0.7016708629 0.7016708629 0.7016708629
0.7034561685 0.7034561685 0.7034561685
0.7052109560 0.7052109560 0.7052109560
0.7069810025 0.7069810025 0.7069810025
0.7087357900 0.7087357900 0.7087357900
0.7104753185 0.7104753185 0.7104753185
0.7122301061 0.7122301061 0.7122301061
0.7139696345 0.7139696345 0.7139696345
0.7157091630 0.7157091630 0.7157091630
