Masters/REDlogFilm_to_REDgamma.cube
TITLE "REDlogFilm_to_REDgamma"
# Created by Tashi Trieu and Greg Cotten

LUT_1D_SIZE 1024
LUT_1D_INPUT_RANGE 0.000000 1.000000

0.0713664454 0.0713664454 0.0713664454
0.0713746953 0.0713746953 0.0713746953
0.0713829452 0.0713829452 0.0713829452
0.0713911950 0.0713911950 0.0713911950
0.0713994449 0.0713994449 0.0713994449
0.0714076948 0.0714076948 0.0714076948
0.0714159447 0.0714159447 0.0714159447
0.0714241945 0.0714241945 0.0714241945
0.0714324444 0.0714324444 0.0714324444
0.0714406943 0.0714406943 0.0714406943
0.0714489442 0.0714489442 0.0714489442
0.0714571940 0.0714571940 0.0714571940
0.0714654439 0.0714654439 0.0714654439
0.0714736938 0.0714736938 0.0714736938
0.0714819437 0.0714819437 0.0714819437
0.0714901935 0.0714901935 0.0714901935
0.0714984434 0.0714984434 0.0714984434
0.0715066933 0.0715066933 0.0715066933
0.0715149432 0.0715149432 0.0715149432
0.0715231930 0.0715231930 0.0715231930
0.0715314429 0.0715314429 0.0715314429
0.0715396928 0.0715396928 0.0715396928
0.0715479427 0.0715479427 0.0715479427
0.0715561925 0.0715561925 0.0715561925
0.0715644424 0.0715644424 0.0715644424
0.0715726923 0.0715726923 0.0715726923
0.0715809421 0.0715809421 0.0715809421
0.0715891920 0.0715891920 0.0715891920
0.0715974419 0.0715974419 0.0715974419
0.0716056918 0.0716056918 0.0716056918
0.0716139416 0.0716139416 0.0716139416
0.0716221915 0.0716221915 0.0716221915
0.0716304414 0.0716304414 0.0716304414
0.0716386913 0.0716386913 0.0716386913
0.0716469411 0.0716469411 0.0716469411
0.0716551910 0.0716551910 0.0716551910
0.0716634409 0.0716634409 0.0716634409
0.0716716908 0.0716716908 0.0716716908
0.0716799406 0.0716799406 0.0716799406
0.0716881905 0.0716881905 0.0716881905
0.0716964404 0.0716964404 0.0716964404
0.0717046903 0.0717046903 0.0717046903
0.0717129401 0.0717129401 0.0717129401
0.0717211900 0.0717211900 0.0717211900
0.0717294399 0.0717294399 0.0717294399
0.0717376898 0.0717376898 0.0717376898
0.0717459396 0.0717459396 0.0717459396
0.0717541895 0.0717541895 0.0717541895
0.0717624394 0.0717624394 0.0717624394
0.0717706893 0.0717706893 0.0717706893
0.0717789391 0.0717789391 0.0717789391
0.0717871890 0.0717871890 0.0717871890
0.0717954389 0.0717954389 0.0717954389
0.0718036888 0.0718036888 0.0718036888
0.0718119386 0.0718119386 0.0718119386
0.0718201885 0.0718201885 0.0718201885
0.0718284384 0.0718284384 0.0718284384
0.0718366883 0.0718366883 0.0718366883
0.0718449381 0.0718449381 0.0718449381
0.0718531880 0.0718531880 0.0718531880
0.0718614379 0.0718614379 0.0718614379
0.0718696878 0.0718696878 0.0718696878
0.0718779376 0.0718779376 0.0718779376
0.0718861875 0.0718861875 0.0718861875
0.0718944374 0.0718944374 0.0718944374
0.0719026873 0.0719026873 0.0719026873
0.0719109371 0.0719109371 0.0719109371
0.0719191870 0.0719191870 0.0719191870
0.0719274369 0.0719274369 0.0719274369
0.0719356868 0.0719356868 0.0719356868
0.0719439366 0.0719439366 0.0719439366
0.0719521865 0.0719521865 0.0719521865
0.0719604364 0.0719604364 0.0719604364
0.0719686863 0.0719686863 0.0719686863
0.0719769361 0.0719769361 0.0719769361
0.0719851860 0.0719851860 0.0719851860
0.0719934359 0.0719934359 0.0719934359
0.0720016858 0.0720016858 0.0720016858
0.0720099356 0.0720099356 0.0720099356
0.0720181855 0.0720181855 0.0720181855
0.0720264354 0.0720264354 0.0720264354
0.0720346853 0.0720346853 0.0720346853
0.0720429351 0.0720429351 0.0720429351
0.0720511850 0.0720511850 0.0720511850
0.0720594349 0.0720594349 0.0720594349
0.0720676848 0.0720676848 0.0720676848
0.0720759346 0.0720759346 0.0720759346
0.0720841845 0.0720841845 0.0720841845
0.0720924344 0.0720924344 0.0720924344
0.0721006842 0.0721006842 0.0721006842
0.0721089341 0.0721089341 0.0721089341
0.0721171840 0.0721171840 0.0721171840
0.0721254339 0.0721254339 0.0721254339
0.0721336837 0.0721336837 0.0721336837
0.0721419336 0.0721419336 0.0721419336
0.0721501835 0.0721501835 0.0721501835
0.0721584334 0.0721584334 0.0721584334
0.0721666832 0.0721666832 0.0721666832
0.0721749331 0.0721749331 0.0721749331
0.0721831830 0.0721831830 0.0721831830
0.0721914329 0.0721914329 0.0721914329
0.0721996827 0.0721996827 0.0721996827
0.0722079326 0.0722079326 0.0722079326
0.0722161825 0.0722161825 0.0722161825
0.0722244324 0.0722244324 0.0722244324
0.0722326822 0.0722326822 0.0722326822
0.0722409321 0.0722409321 0.0722409321
0.0722491820 0.0722491820 0.0722491820
0.0722574319 0.0722574319 0.0722574319
0.0723239961 0.0723239961 0.0723239961
0.0724359948 0.0724359948 0.0724359948
0.0725479935 0.0725479935 0.0725479935
0.0726599922 0.0726599922 0.0726599922
0.0727719910 0.0727719910 0.0727719910
0.0728839897 0.0728839897 0.0728839897
0.0729959884 0.0729959884 0.0729959884
0.0731079871 0.0731079871 0.0731079871
0.0732494043 0.0732494043 0.0732494043
0.0734126113 0.0734126113 0.0734126113
0.0735758183 0.0735758183 0.0735758183
0.0737390253 0.0737390253 0.0737390253
0.0739022323 0.0739022323 0.0739022323
0.0740694928 0.0740694928 0.0740694928
0.0742762349 0.0742762349 0.0742762349
0.0744829771 0.0744829771 0.0744829771
0.0746897192 0.0746897192 0.0746897192
0.0748964614 0.0748964614 0.0748964614
0.0751292836 0.0751292836 0.0751292836
0.0753700737 0.0753700737 0.0753700737
0.0756108638 0.0756108638 0.0756108638
0.0758534885 0.0758534885 0.0758534885
0.0761304524 0.0761304524 0.0761304524
0.0764074164 0.0764074164 0.0764074164
0.0766843804 0.0766843804 0.0766843804
0.0770012493 0.0770012493 0.0770012493
0.0773268366 0.0773268366 0.0773268366
0.0776548788 0.0776548788 0.0776548788
0.0780140735 0.0780140735 0.0780140735
0.0783732682 0.0783732682 0.0783732682
0.0787498267 0.0787498267 0.0787498267
0.0791388316 0.0791388316 0.0791388316
0.0795337777 0.0795337777 0.0795337777
0.0799437937 0.0799437937 0.0799437937
0.0803561917 0.0803561917 0.0803561917
0.0807898146 0.0807898146 0.0807898146
0.0812237736 0.0812237736 0.0812237736
0.0816662852 0.0816662852 0.0816662852
0.0821090417 0.0821090417 0.0821090417
0.0825666860 0.0825666860 0.0825666860
0.0830243381 0.0830243381 0.0830243381
0.0834821088 0.0834821088 0.0834821088
0.0839414218 0.0839414218 0.0839414218
0.0844135886 0.0844135886 0.0844135886
0.0848842533 0.0848842533 0.0848842533
0.0853493499 0.0853493499 0.0853493499
0.0858144465 0.0858144465 0.0858144465
0.0862795431 0.0862795431 0.0862795431
0.0867430117 0.0867430117 0.0867430117
0.0872036543 0.0872036543 0.0872036543
0.0876579825 0.0876579825 0.0876579825
0.0881037136 0.0881037136 0.0881037136
0.0885461547 0.0885461547 0.0885461547
0.0889839852 0.0889839852 0.0889839852
0.0894178683 0.0894178683 0.0894178683
0.0898451209 0.0898451209 0.0898451209
0.0902667139 0.0902667139 0.0902667139
0.0906737046 0.0906737046 0.0906737046
0.0910799067 0.0910799067 0.0910799067
0.0914771918 0.0914771918 0.0914771918
0.0918744769 0.0918744769 0.0918744769
0.0922657866 0.0922657866 0.0922657866
0.0926558676 0.0926558676 0.0926558676
0.0930432225 0.0930432225 0.0930432225
0.0934282185 0.0934282185 0.0934282185
0.0938138729 0.0938138729 0.0938138729
0.0942019681 0.0942019681 0.0942019681
0.0945900633 0.0945900633 0.0945900633
0.0949721523 0.0949721523 0.0949721523
0.0953536278 0.0953536278 0.0953536278
0.0957351034 0.0957351034 0.0957351034
0.0961165789 0.0961165789 0.0961165789
0.0964982287 0.0964982287 0.0964982287
0.0968805066 0.0968805066 0.0968805066
0.0972627845 0.0972627845 0.0972627845
0.0976519053 0.0976519053 0.0976519053
0.0980419864 0.0980419864 0.0980419864
0.0984359503 0.0984359503 0.0984359503
0.0988326848 0.0988326848 0.0988326848
0.0992336797 0.0992336797 0.0992336797
0.0996433765 0.0996433765 0.0996433765
0.1000534324 0.1000534324 0.1000534324
0.1004656042 0.1004656042 0.1004656042
0.1008777760 0.1008777760 0.1008777760
0.1013054654 0.1013054654 0.1013054654
0.1017335582 0.1017335582 0.1017335582
0.1021744106 0.1021744106 0.1021744106
0.1026169222 0.1026169222 0.1026169222
0.1030735304 0.1030735304 0.1030735304
0.1035323711 0.1035323711 0.1035323711
0.1039905151 0.1039905151 0.1039905151
0.1044485933 0.1044485933 0.1044485933
0.1049210346 0.1049210346 0.1049210346
0.1053946342 0.1053946342 0.1053946342
0.1058758723 0.1058758723 0.1058758723
0.1063582267 0.1063582267 0.1063582267
0.1068447686 0.1068447686 0.1068447686
0.1073319600 0.1073319600 0.1073319600
0.1078202487 0.1078202487 0.1078202487
0.1083142937 0.1083142937 0.1083142937
0.1088132484 0.1088132484 0.1088132484
0.1093156329 0.1093156329 0.1093156329
0.1098191806 0.1098191806 0.1098191806
0.1103293387 0.1103293387 0.1103293387
0.1108415351 0.1108415351 0.1108415351
0.1113603418 0.1113603418 0.1113603418
0.1118801329 0.1118801329 0.1118801329
0.1124009366 0.1124009366 0.1124009366
0.1129320211 0.1129320211 0.1129320211
0.1134666016 0.1134666016 0.1134666016
0.1140058083 0.1140058083 0.1140058083
0.1145454144 0.1145454144 0.1145454144
0.1150855266 0.1150855266 0.1150855266
0.1156328679 0.1156328679 0.1156328679
0.1161836813 0.1161836813 0.1161836813
0.1167425384 0.1167425384 0.1167425384
0.1173018592 0.1173018592 0.1173018592
0.1178615513 0.1178615513 0.1178615513
0.1184348911 0.1184348911 0.1184348911
0.1190096314 0.1190096314 0.1190096314
0.1195855610 0.1195855610 0.1195855610
0.1201705465 0.1201705465 0.1201705465
0.1207567046 0.1207567046 0.1207567046
0.1213418261 0.1213418261 0.1213418261
0.1219348440 0.1219348440 0.1219348440
0.1225334804 0.1225334804 0.1225334804
0.1231408584 0.1231408584 0.1231408584
0.1237506676 0.1237506676 0.1237506676
0.1243614421 0.1243614421 0.1243614421
0.1249729870 0.1249729870 0.1249729870
0.1255917894 0.1255917894 0.1255917894
0.1262120511 0.1262120511 0.1262120511
0.1268330141 0.1268330141 0.1268330141
0.1274694902 0.1274694902 0.1274694902
0.1281047409 0.1281047409 0.1281047409
0.1287424426 0.1287424426 0.1287424426
0.1293944425 0.1293944425 0.1293944425
0.1300424902 0.1300424902 0.1300424902
0.1306889852 0.1306889852 0.1306889852
0.1313356155 0.1313356155 0.1313356155
0.1320026010 0.1320026010 0.1320026010
0.1326670696 0.1326670696 0.1326670696
0.1333333333 0.1333333333 0.1333333333
0.1340047303 0.1340047303 0.1340047303
0.1346761273 0.1346761273 0.1346761273
0.1353525404 0.1353525404 0.1353525404
0.1360341802 0.1360341802 0.1360341802
0.1367208362 0.1367208362 0.1367208362
0.1374074922 0.1374074922 0.1374074922
0.1380941482 0.1380941482 0.1380941482
0.1387853319 0.1387853319 0.1387853319
0.1394827192 0.1394827192 0.1394827192
0.1401846342 0.1401846342 0.1401846342
0.1408904854 0.1408904854 0.1408904854
0.1416037232 0.1416037232 0.1416037232
0.1423167680 0.1423167680 0.1423167680
0.1430245407 0.1430245407 0.1430245407
0.1437401771 0.1437401771 0.1437401771
0.1444571603 0.1444571603 0.1444571603
0.1451790421 0.1451790421 0.1451790421
0.1459026671 0.1459026671 0.1459026671
0.1466260071 0.1466260071 0.1466260071
0.1473565089 0.1473565089 0.1473565089
0.1480888075 0.1480888075 0.1480888075
0.1488212406 0.1488212406 0.1488212406
0.1495536736 0.1495536736 0.1495536736
0.1502892684 0.1502892684 0.1502892684
0.1510337987 0.1510337987 0.1510337987
0.1517814908 0.1517814908 0.1517814908
0.1525327679 0.1525327679 0.1525327679
0.1532877190 0.1532877190 0.1532877190
0.1540485366 0.1540485366 0.1540485366
0.1548144511 0.1548144511 0.1548144511
0.1555830918 0.1555830918 0.1555830918
0.1563591974 0.1563591974 0.1563591974
0.1571374075 0.1571374075 0.1571374075
0.1579188909 0.1579188909 0.1579188909
0.1587090867 0.1587090867 0.1587090867
0.1595068073 0.1595068073 0.1595068073
0.1603112840 0.1603112840 0.1603112840
0.1611200122 0.1611200122 0.1611200122
0.1619317369 0.1619317369 0.1619317369
0.1627548719 0.1627548719 0.1627548719
0.1635906202 0.1635906202 0.1635906202
0.1644163631 0.1644163631 0.1644163631
0.1652699715 0.1652699715 0.1652699715
0.1661123993 0.1661123993 0.1661123993
0.1669794766 0.1669794766 0.1669794766
0.1678492409 0.1678492409 0.1678492409
0.1687190051 0.1687190051 0.1687190051
0.1695912941 0.1695912941 0.1695912941
0.1704737926 0.1704737926 0.1704737926
0.1713614838 0.1713614838 0.1713614838
0.1722590982 0.1722590982 0.1722590982
0.1731593805 0.1731593805 0.1731593805
0.1740596628 0.1740596628 0.1740596628
0.1749623497 0.1749623497 0.1749623497
0.1758754864 0.1758754864 0.1758754864
0.1767929474 0.1767929474 0.1767929474
0.1777218280 0.1777218280 0.1777218280
0.1786536119 0.1786536119 0.1786536119
0.1795984575 0.1795984575 0.1795984575
0.1805301888 0.1805301888 0.1805301888
0.1814895368 0.1814895368 0.1814895368
0.1824387669 0.1824387669 0.1824387669
0.1834006989 0.1834006989 0.1834006989
0.1843747616 0.1843747616 0.1843747616
0.1853513390 0.1853513390 0.1853513390
0.1863313830 0.1863313830 0.1863313830
0.1873197528 0.1873197528 0.1873197528
0.1883143122 0.1883143122 0.1883143122
0.1893203980 0.1893203980 0.1893203980
0.1903409322 0.1903409322 0.1903409322
0.1913509418 0.1913509418 0.1913509418
0.1923830986 0.1923830986 0.1923830986
0.1934145291 0.1934145291 0.1934145291
0.1944609750 0.1944609750 0.1944609750
0.1955138476 0.1955138476 0.1955138476
0.1965673134 0.1965673134 0.1965673134
0.1976348516 0.1976348516 0.1976348516
0.1987086571 0.1987086571 0.1987086571
0.1997985585 0.1997985585 0.1997985585
0.2008871737 0.2008871737 0.2008871737
0.2019837519 0.2019837519 0.2019837519
0.2030975814 0.2030975814 0.2030975814
0.2042145329 0.2042145329 0.2042145329
0.2053428471 0.2053428471 0.2053428471
0.2064846462 0.2064846462 0.2064846462
0.2076192920 0.2076192920 0.2076192920
0.2087739376 0.2087739376 0.2087739376
0.2099336232 0.2099336232 0.2099336232
0.2110951111 0.2110951111 0.2110951111
0.2122682536 0.2122682536 0.2122682536
0.2134449238 0.2134449238 0.2134449238
0.2146348335 0.2146348335 0.2146348335
0.2158360163 0.2158360163 0.2158360163
0.2170323199 0.2170323199 0.2170323199
0.2182480723 0.2182480723 0.2182480723
0.2194580499 0.2194580499 0.2194580499
0.2206769609 0.2206769609 0.2206769609
0.2219119554 0.2219119554 0.2219119554
0.2231479362 0.2231479362 0.2231479362
0.2243839170 0.2243839170 0.2243839170
0.2256225865 0.2256225865 0.2256225865
0.2268726893 0.2268726893 0.2268726893
0.2281356546 0.2281356546 0.2281356546
0.2293913689 0.2293913689 0.2293913689
0.2306559460 0.2306559460 0.2306559460
0.2319371328 0.2319371328 0.2319371328
0.2332188907 0.2332188907 0.2332188907
0.2345006485 0.2345006485 0.2345006485
0.2357824063 0.2357824063 0.2357824063
0.2370659872 0.2370659872 0.2370659872
0.2383634903 0.2383634903 0.2383634903
0.2396722270 0.2396722270 0.2396722270
0.2409704738 0.2409704738 0.2409704738
0.2422678598 0.2422678598 0.2422678598
0.2435797665 0.2435797665 0.2435797665
0.2448920424 0.2448920424 0.2448920424
0.2462043183 0.2462043183 0.2462043183
0.2475165942 0.2475165942 0.2475165942
0.2488312867 0.2488312867 0.2488312867
0.2501564050 0.2501564050 0.2501564050
0.2514839399 0.2514839399 0.2514839399
0.2528114748 0.2528114748 0.2528114748
0.2541411882 0.2541411882 0.2541411882
0.2554833687 0.2554833687 0.2554833687
0.2568376410 0.2568376410 0.2568376410
0.2581855099 0.2581855099 0.2581855099
0.2595536581 0.2595536581 0.2595536581
0.2609150676 0.2609150676 0.2609150676
0.2622897294 0.2622897294 0.2622897294
0.2636762075 0.2636762075 0.2636762075
0.2650772961 0.2650772961 0.2650772961
0.2664698829 0.2664698829 0.2664698829
0.2678873884 0.2678873884 0.2678873884
0.2693083281 0.2693083281 0.2693083281
0.2707408255 0.2707408255 0.2707408255
0.2721798656 0.2721798656 0.2721798656
0.2736400397 0.2736400397 0.2736400397
0.2751049058 0.2751049058 0.2751049058
0.2765741290 0.2765741290 0.2765741290
0.2780651560 0.2780651560 0.2780651560
0.2795623538 0.2795623538 0.2795623538
0.2810755252 0.2810755252 0.2810755252
0.2826123445 0.2826123445 0.2826123445
0.2841545796 0.2841545796 0.2841545796
0.2857099260 0.2857099260 0.2857099260
0.2872702397 0.2872702397 0.2872702397
0.2888532845 0.2888532845 0.2888532845
0.2904410921 0.2904410921 0.2904410921
0.2920442749 0.2920442749 0.2920442749
0.2936598764 0.2936598764 0.2936598764
0.2952808019 0.2952808019 0.2952808019
0.2969253071 0.2969253071 0.2969253071
0.2985732814 0.2985732814 0.2985732814
0.3002224785 0.3002224785 0.3002224785
0.3018862716 0.3018862716 0.3018862716
0.3035649813 0.3035649813 0.3035649813
0.3052567330 0.3052567330 0.3052567330
0.3069522882 0.3069522882 0.3069522882
0.3086609918 0.3086609918 0.3086609918
0.3103837644 0.3103837644 0.3103837644
0.3121087802 0.3121087802 0.3121087802
0.3138475624 0.3138475624 0.3138475624
0.3155871338 0.3155871338 0.3155871338
0.3173422030 0.3173422030 0.3173422030
0.3191119249 0.3191119249 0.3191119249
0.3208825782 0.3208825782 0.3208825782
0.3226672770 0.3226672770 0.3226672770
0.3244532382 0.3244532382 0.3244532382
0.3262537187 0.3262537187 0.3262537187
0.3280689708 0.3280689708 0.3280689708
0.3298849641 0.3298849641 0.3298849641
0.3317158770 0.3317158770 0.3317158770
0.3335474468 0.3335474468 0.3335474468
0.3353933013 0.3353933013 0.3353933013
0.3372396429 0.3372396429 0.3372396429
0.3390888311 0.3390888311 0.3390888311
0.3409628443 0.3409628443 0.3409628443
0.3428397040 0.3428397040 0.3428397040
0.3447183511 0.3447183511 0.3447183511
0.3466102666 0.3466102666 0.3466102666
0.3485160601 0.3485160601 0.3485160601
0.3504238685 0.3504238685 0.3504238685
0.3523466225 0.3523466225 0.3523466225
0.3542852905 0.3542852905 0.3542852905
0.3562371252 0.3562371252 0.3562371252
0.3581919235 0.3581919235 0.3581919235
0.3601586938 0.3601586938 0.3601586938
0.3621272286 0.3621272286 0.3621272286
0.3641120159 0.3641120159 0.3641120159
0.3661097124 0.3661097124 0.3661097124
0.3681100596 0.3681100596 0.3681100596
0.3701228351 0.3701228351 0.3701228351
0.3721381369 0.3721381369 0.3721381369
0.3741664759 0.3741664759 0.3741664759
0.3761959258 0.3761959258 0.3761959258
0.3782255445 0.3782255445 0.3782255445
0.3802839096 0.3802839096 0.3802839096
0.3823316464 0.3823316464 0.3823316464
0.3843905937 0.3843905937 0.3843905937
0.3864652476 0.3864652476 0.3864652476
0.3885404746 0.3885404746 0.3885404746
0.3906164751 0.3906164751 0.3906164751
0.3927061875 0.3927061875 0.3927061875
0.3947966735 0.3947966735 0.3947966735
0.3968878780 0.3968878780 0.3968878780
0.3989929046 0.3989929046 0.3989929046
0.4011002212 0.4011002212 0.4011002212
0.4032193562 0.4032193562 0.4032193562
0.4053267713 0.4053267713 0.4053267713
0.4074478043 0.4074478043 0.4074478043
0.4095822801 0.4095822801 0.4095822801
0.4117052470 0.4117052470 0.4117052470
0.4138408569 0.4138408569 0.4138408569
0.4159914549 0.4159914549 0.4159914549
0.4181444438 0.4181444438 0.4181444438
0.4203097581 0.4203097581 0.4203097581
0.4224781058 0.4224781058 0.4224781058
0.4246585794 0.4246585794 0.4246585794
0.4268406195 0.4268406195 0.4268406195
0.4290236741 0.4290236741 0.4290236741
0.4312211249 0.4312211249 0.4312211249
0.4334312787 0.4334312787 0.4334312787
0.4356316492 0.4356316492 0.4356316492
0.4378562739 0.4378562739 0.4378562739
0.4400709513 0.4400709513 0.4400709513
0.4422980087 0.4422980087 0.4422980087
0.4445264937 0.4445264937 0.4445264937
0.4467689021 0.4467689021 0.4467689021
0.4490119783 0.4490119783 0.4490119783
0.4512564390 0.4512564390 0.4512564390
0.4535133898 0.4535133898 0.4535133898
0.4557717250 0.4557717250 0.4557717250
0.4580310956 0.4580310956 0.4580310956
0.4603036545 0.4603036545 0.4603036545
0.4625772488 0.4625772488 0.4625772488
0.4648508431 0.4648508431 0.4648508431
0.4671258563 0.4671258563 0.4671258563
0.4694132906 0.4694132906 0.4694132906
0.4717021439 0.4717021439 0.4717021439
0.4739909972 0.4739909972 0.4739909972
0.4762798505 0.4762798505 0.4762798505
0.4785695768 0.4785695768 0.4785695768
0.4808728160 0.4808728160 0.4808728160
0.4831769284 0.4831769284 0.4831769284
0.4854810407 0.4854810407 0.4854810407
0.4877880921 0.4877880921 0.4877880921
0.4901193023 0.4901193023 0.4901193023
0.4924416804 0.4924416804 0.4924416804
0.4947877995 0.4947877995 0.4947877995
0.4971241047 0.4971241047 0.4971241047
0.4994749985 0.4994749985 0.4994749985
0.5018387121 0.5018387121 0.5018387121
0.5042038605 0.5042038605 0.5042038605
0.5065704445 0.5065704445 0.5065704445
0.5089487315 0.5089487315 0.5089487315
0.5113165109 0.5113165109 0.5113165109
0.5137088115 0.5137088115 0.5137088115
0.5160906386 0.5160906386 0.5160906386
0.5184720189 0.5184720189 0.5184720189
0.5208667124 0.5208667124 0.5208667124
0.5232623789 0.5232623789 0.5232623789
0.5256580453 0.5256580453 0.5256580453
0.5280537118 0.5280537118 0.5280537118
0.5304493782 0.5304493782 0.5304493782
0.5328450446 0.5328450446 0.5328450446
0.5352407111 0.5352407111 0.5352407111
0.5376363775 0.5376363775 0.5376363775
0.5400320439 0.5400320439 0.5400320439
0.5424277104 0.5424277104 0.5424277104
0.5448223386 0.5448223386 0.5448223386
0.5472037842 0.5472037842 0.5472037842
0.5495855990 0.5495855990 0.5495855990
0.5519788209 0.5519788209 0.5519788209
0.5543597446 0.5543597446 0.5543597446
0.5567268409 0.5567268409 0.5567268409
0.5591048879 0.5591048879 0.5591048879
0.5614702220 0.5614702220 0.5614702220
0.5638223032 0.5638223032 0.5638223032
0.5661860075 0.5661860075 0.5661860075
0.5685511559 0.5685511559 0.5685511559
0.5709163043 0.5709163043 0.5709163043
0.5732814527 0.5732814527 0.5732814527
0.5756466010 0.5756466010 0.5756466010
0.5780117494 0.5780117494 0.5780117494
0.5803768978 0.5803768978 0.5803768978
0.5827420462 0.5827420462 0.5827420462
0.5851071946 0.5851071946 0.5851071946
0.5874723430 0.5874723430 0.5874723430
0.5898374914 0.5898374914 0.5898374914
0.5922026398 0.5922026398 0.5922026398
0.5945677882 0.5945677882 0.5945677882
0.5969314899 0.5969314899 0.5969314899
0.5992834163 0.5992834163 0.5992834163
0.6016479744 0.6016479744 0.6016479744
0.6040117311 0.6040117311 0.6040117311
0.6063630121 0.6063630121 0.6063630121
0.6087129015 0.6087129015 0.6087129015
0.6110627909 0.6110627909 0.6110627909
0.6134126802 0.6134126802 0.6134126802
0.6157625696 0.6157625696 0.6157625696
0.6181116656 0.6181116656 0.6181116656
0.6204481111 0.6204481111 0.6204481111
0.6227955815 0.6227955815 0.6227955815
0.6251316091 0.6251316091 0.6251316091
0.6274662394 0.6274662394 0.6274662394
0.6297998373 0.6297998373 0.6297998373
0.6321211007 0.6321211007 0.6321211007
0.6344534336 0.6344534336 0.6344534336
0.6367741076 0.6367741076 0.6367741076
0.6390797724 0.6390797724 0.6390797724
0.6413977264 0.6413977264 0.6413977264
0.6437170977 0.6437170977 0.6437170977
0.6460364691 0.6460364691 0.6460364691
0.6483560126 0.6483560126 0.6483560126
0.6506890404 0.6506890404 0.6506890404
0.6530098421 0.6530098421 0.6530098421
0.6553292134 0.6553292134 0.6553292134
0.6576485847 0.6576485847 0.6576485847
0.6599679560 0.6599679560 0.6599679560
0.6622873274 0.6622873274 0.6622873274
0.6646066987 0.6646066987 0.6646066987
0.6669248984 0.6669248984 0.6669248984
0.6692301823 0.6692301823 0.6692301823
0.6715342946 0.6715342946 0.6715342946
0.6738384070 0.6738384070 0.6738384070
0.6761425193 0.6761425193 0.6761425193
0.6784452109 0.6784452109 0.6784452109
0.6807354849 0.6807354849 0.6807354849
0.6830243381 0.6830243381 0.6830243381
0.6853119835 0.6853119835 0.6853119835
0.6875859052 0.6875859052 0.6875859052
0.6898464876 0.6898464876 0.6898464876
0.6921175122 0.6921175122 0.6921175122
0.6943632430 0.6943632430 0.6943632430
0.6966192295 0.6966192295 0.6966192295
0.6988494226 0.6988494226 0.6988494226
0.7010900924 0.7010900924 0.7010900924
0.7033035782 0.7033035782 0.7033035782
0.7055161364 0.7055161364 0.7055161364
0.7077259217 0.7077259217 0.7077259217
0.7099107347 0.7099107347 0.7099107347
0.7120927749 0.7120927749 0.7120927749
0.7142719619 0.7142719619 0.7142719619
0.7164266955 0.7164266955 0.7164266955
0.7185899507 0.7185899507 0.7185899507
0.7207300988 0.7207300988 0.7207300988
0.7228796354 0.7228796354 0.7228796354
0.7250171664 0.7250171664 0.7250171664
0.7271531197 0.7271531197 0.7271531197
0.7292744335 0.7292744335 0.7292744335
0.7313954375 0.7313954375 0.7313954375
0.7335155592 0.7335155592 0.7335155592
0.7356205619 0.7356205619 0.7356205619
0.7377134799 0.7377134799 0.7377134799
0.7398162736 0.7398162736 0.7398162736
0.7418936446 0.7418936446 0.7418936446
0.7439688716 0.7439688716 0.7439688716
0.7460440986 0.7460440986 0.7460440986
0.7481160150 0.7481160150 0.7481160150
0.7501652001 0.7501652001 0.7501652001
