Masters/REDlogFilm_to_REDgamma2.cube
TITLE "REDlogFilm_to_REDgamma2"
# Created by Tashi Trieu and Greg Cotten

LUT_1D_SIZE 1024
LUT_1D_INPUT_RANGE 0.000000 1.000000

0.0561226825 0.0561226825 0.0561226825
0.0561354145 0.0561354145 0.0561354145
0.0561481466 0.0561481466 0.0561481466
0.0561608786 0.0561608786 0.0561608786
0.0561736106 0.0561736106 0.0561736106
0.0561863426 0.0561863426 0.0561863426
0.0561990747 0.0561990747 0.0561990747
0.0562118067 0.0562118067 0.0562118067
0.0562245387 0.0562245387 0.0562245387
0.0562372707 0.0562372707 0.0562372707
0.0562500028 0.0562500028 0.0562500028
0.0562627348 0.0562627348 0.0562627348
0.0562754668 0.0562754668 0.0562754668
0.0562881988 0.0562881988 0.0562881988
0.0563009309 0.0563009309 0.0563009309
0.0563136629 0.0563136629 0.0563136629
0.0563263949 0.0563263949 0.0563263949
0.0563391269 0.0563391269 0.0563391269
0.0563518590 0.0563518590 0.0563518590
0.0563645910 0.0563645910 0.0563645910
0.0563773230 0.0563773230 0.0563773230
0.0563900550 0.0563900550 0.0563900550
0.0564027871 0.0564027871 0.0564027871
0.0564155191 0.0564155191 0.0564155191
0.0564282511 0.0564282511 0.0564282511
0.0564409831 0.0564409831 0.0564409831
0.0564537152 0.0564537152 0.0564537152
0.0564664472 0.0564664472 0.0564664472
0.0564791792 0.0564791792 0.0564791792
0.0564919112 0.0564919112 0.0564919112
0.0565046433 0.0565046433 0.0565046433
0.0565173753 0.0565173753 0.0565173753
0.0565301073 0.0565301073 0.0565301073
0.0565428393 0.0565428393 0.0565428393
0.0565555714 0.0565555714 0.0565555714
0.0565683034 0.0565683034 0.0565683034
0.0565810354 0.0565810354 0.0565810354
0.0565937675 0.0565937675 0.0565937675
0.0566064995 0.0566064995 0.0566064995
0.0566192315 0.0566192315 0.0566192315
0.0566319635 0.0566319635 0.0566319635
0.0566446956 0.0566446956 0.0566446956
0.0566574276 0.0566574276 0.0566574276
0.0566701596 0.0566701596 0.0566701596
0.0566828916 0.0566828916 0.0566828916
0.0566956237 0.0566956237 0.0566956237
0.0567083557 0.0567083557 0.0567083557
0.0567210877 0.0567210877 0.0567210877
0.0567338197 0.0567338197 0.0567338197
0.0567465518 0.0567465518 0.0567465518
0.0567592838 0.0567592838 0.0567592838
0.0567720158 0.0567720158 0.0567720158
0.0567847478 0.0567847478 0.0567847478
0.0567974799 0.0567974799 0.0567974799
0.0568102119 0.0568102119 0.0568102119
0.0568229439 0.0568229439 0.0568229439
0.0568356759 0.0568356759 0.0568356759
0.0568484080 0.0568484080 0.0568484080
0.0568611400 0.0568611400 0.0568611400
0.0568738720 0.0568738720 0.0568738720
0.0568866040 0.0568866040 0.0568866040
0.0568993361 0.0568993361 0.0568993361
0.0569120681 0.0569120681 0.0569120681
0.0569248001 0.0569248001 0.0569248001
0.0569375321 0.0569375321 0.0569375321
0.0569502642 0.0569502642 0.0569502642
0.0569629962 0.0569629962 0.0569629962
0.0569757282 0.0569757282 0.0569757282
0.0569884602 0.0569884602 0.0569884602
0.0570011923 0.0570011923 0.0570011923
0.0570139243 0.0570139243 0.0570139243
0.0570266563 0.0570266563 0.0570266563
0.0570590103 0.0570590103 0.0570590103
0.0571177466 0.0571177466 0.0571177466
0.0571764828 0.0571764828 0.0571764828
0.0572352191 0.0572352191 0.0572352191
0.0572939554 0.0572939554 0.0572939554
0.0573526916 0.0573526916 0.0573526916
0.0574114279 0.0574114279 0.0574114279
0.0574701642 0.0574701642 0.0574701642
0.0575289004 0.0575289004 0.0575289004
0.0575876367 0.0575876367 0.0575876367
0.0576463730 0.0576463730 0.0576463730
0.0577051092 0.0577051092 0.0577051092
0.0577638455 0.0577638455 0.0577638455
0.0578225818 0.0578225818 0.0578225818
0.0578813180 0.0578813180 0.0578813180
0.0579400543 0.0579400543 0.0579400543
0.0580395817 0.0580395817 0.0580395817
0.0581430536 0.0581430536 0.0581430536
0.0582465254 0.0582465254 0.0582465254
0.0583499972 0.0583499972 0.0583499972
0.0584534691 0.0584534691 0.0584534691
0.0585569409 0.0585569409 0.0585569409
0.0586604128 0.0586604128 0.0586604128
0.0587638846 0.0587638846 0.0587638846
0.0588713781 0.0588713781 0.0588713781
0.0590132102 0.0590132102 0.0590132102
0.0591550423 0.0591550423 0.0591550423
0.0592968743 0.0592968743 0.0592968743
0.0594387064 0.0594387064 0.0594387064
0.0595805385 0.0595805385 0.0595805385
0.0597223705 0.0597223705 0.0597223705
0.0598639781 0.0598639781 0.0598639781
0.0600054800 0.0600054800 0.0600054800
0.0601469819 0.0601469819 0.0601469819
0.0602884837 0.0602884837 0.0602884837
0.0604299856 0.0604299856 0.0604299856
0.0605714874 0.0605714874 0.0605714874
0.0607175068 0.0607175068 0.0607175068
0.0608778485 0.0608778485 0.0608778485
0.0610381902 0.0610381902 0.0610381902
0.0611985319 0.0611985319 0.0611985319
0.0613588736 0.0613588736 0.0613588736
0.0615192153 0.0615192153 0.0615192153
0.0617015532 0.0617015532 0.0617015532
0.0619014241 0.0619014241 0.0619014241
0.0621012950 0.0621012950 0.0621012950
0.0623011659 0.0623011659 0.0623011659
0.0625010369 0.0625010369 0.0625010369
0.0627467827 0.0627467827 0.0627467827
0.0629926605 0.0629926605 0.0629926605
0.0632385383 0.0632385383 0.0632385383
0.0634977611 0.0634977611 0.0634977611
0.0637895106 0.0637895106 0.0637895106
0.0640812602 0.0640812602 0.0640812602
0.0643807122 0.0643807122 0.0643807122
0.0647184647 0.0647184647 0.0647184647
0.0650562172 0.0650562172 0.0650562172
0.0654144366 0.0654144366 0.0654144366
0.0657957936 0.0657957936 0.0657957936
0.0661808136 0.0661808136 0.0661808136
0.0666080632 0.0666080632 0.0666080632
0.0670353127 0.0670353127 0.0670353127
0.0675059128 0.0675059128 0.0675059128
0.0679798234 0.0679798234 0.0679798234
0.0684958988 0.0684958988 0.0684958988
0.0690185302 0.0690185302 0.0690185302
0.0695603476 0.0695603476 0.0695603476
0.0701207906 0.0701207906 0.0701207906
0.0706951248 0.0706951248 0.0706951248
0.0712857439 0.0712857439 0.0712857439
0.0718899762 0.0718899762 0.0718899762
0.0725109810 0.0725109810 0.0725109810
0.0731413247 0.0731413247 0.0731413247
0.0737824037 0.0737824037 0.0737824037
0.0744338717 0.0744338717 0.0744338717
0.0750928004 0.0750928004 0.0750928004
0.0757661055 0.0757661055 0.0757661055
0.0764476997 0.0764476997 0.0764476997
0.0771345717 0.0771345717 0.0771345717
0.0778240614 0.0778240614 0.0778240614
0.0785229267 0.0785229267 0.0785229267
0.0792248417 0.0792248417 0.0792248417
0.0799267567 0.0799267567 0.0799267567
0.0806286717 0.0806286717 0.0806286717
0.0813305867 0.0813305867 0.0813305867
0.0820373187 0.0820373187 0.0820373187
0.0827462936 0.0827462936 0.0827462936
0.0834513403 0.0834513403 0.0834513403
0.0841420483 0.0841420483 0.0841420483
0.0848351569 0.0848351569 0.0848351569
0.0855268177 0.0855268177 0.0855268177
0.0862130664 0.0862130664 0.0862130664
0.0868847697 0.0868847697 0.0868847697
0.0875510319 0.0875510319 0.0875510319
0.0882126982 0.0882126982 0.0882126982
0.0888698203 0.0888698203 0.0888698203
0.0895399405 0.0895399405 0.0895399405
0.0902062897 0.0902062897 0.0902062897
0.0908698284 0.0908698284 0.0908698284
0.0915392381 0.0915392381 0.0915392381
0.0922102693 0.0922102693 0.0922102693
0.0928816663 0.0928816663 0.0928816663
0.0935530632 0.0935530632 0.0935530632
0.0942244602 0.0942244602 0.0942244602
0.0949009235 0.0949009235 0.0949009235
0.0955782175 0.0955782175 0.0955782175
0.0962545081 0.0962545081 0.0962545081
0.0969373388 0.0969373388 0.0969373388
0.0976170623 0.0976170623 0.0976170623
0.0982986191 0.0982986191 0.0982986191
0.0989854252 0.0989854252 0.0989854252
0.0996752402 0.0996752402 0.0996752402
0.1003689037 0.1003689037 0.1003689037
0.1010648272 0.1010648272 0.1010648272
0.1017611659 0.1017611659 0.1017611659
0.1024515211 0.1024515211 0.1024515211
0.1031509880 0.1031509880 0.1031509880
0.1038529030 0.1038529030 0.1038529030
0.1045573030 0.1045573030 0.1045573030
0.1052721826 0.1052721826 0.1052721826
0.1059852106 0.1059852106 0.1059852106
0.1066959800 0.1066959800 0.1066959800
0.1074121315 0.1074121315 0.1074121315
0.1081394479 0.1081394479 0.1081394479
0.1088598185 0.1088598185 0.1088598185
0.1095902953 0.1095902953 0.1095902953
0.1103227283 0.1103227283 0.1103227283
0.1110551614 0.1110551614 0.1110551614
0.1117877705 0.1117877705 0.1117877705
0.1125218760 0.1125218760 0.1125218760
0.1132638251 0.1132638251 0.1132638251
0.1140048457 0.1140048457 0.1140048457
0.1147478447 0.1147478447 0.1147478447
0.1154956093 0.1154956093 0.1154956093
0.1162436893 0.1162436893 0.1162436893
0.1170033438 0.1170033438 0.1170033438
0.1177581432 0.1177581432 0.1177581432
0.1185122412 0.1185122412 0.1185122412
0.1192683181 0.1192683181 0.1192683181
0.1200294333 0.1200294333 0.1200294333
0.1208053774 0.1208053774 0.1208053774
0.1215686275 0.1215686275 0.1215686275
0.1223356426 0.1223356426 0.1223356426
0.1231097887 0.1231097887 0.1231097887
0.1238879988 0.1238879988 0.1238879988
0.1246662089 0.1246662089 0.1246662089
0.1254445125 0.1254445125 0.1254445125
0.1262238451 0.1262238451 0.1262238451
0.1270160983 0.1270160983 0.1270160983
0.1278095674 0.1278095674 0.1278095674
0.1286030365 0.1286030365 0.1286030365
0.1293965057 0.1293965057 0.1293965057
0.1301934791 0.1301934791 0.1301934791
0.1309963130 0.1309963130 0.1309963130
0.1317927946 0.1317927946 0.1317927946
0.1326009492 0.1326009492 0.1326009492
0.1334096284 0.1334096284 0.1334096284
0.1342219249 0.1342219249 0.1342219249
0.1350423438 0.1350423438 0.1350423438
0.1358620731 0.1358620731 0.1358620731
0.1366791384 0.1366791384 0.1366791384
0.1374990463 0.1374990463 0.1374990463
0.1383257599 0.1383257599 0.1383257599
0.1391604684 0.1391604684 0.1391604684
0.1399862989 0.1399862989 0.1399862989
0.1408112908 0.1408112908 0.1408112908
0.1416495003 0.1416495003 0.1416495003
0.1424887465 0.1424887465 0.1424887465
0.1433279927 0.1433279927 0.1433279927
0.1441672389 0.1441672389 0.1441672389
0.1450105637 0.1450105637 0.1450105637
0.1458609903 0.1458609903 0.1458609903
0.1467154955 0.1467154955 0.1467154955
0.1475700008 0.1475700008 0.1475700008
0.1484245060 0.1484245060 0.1484245060
0.1492818491 0.1492818491 0.1492818491
0.1501464004 0.1501464004 0.1501464004
0.1510049766 0.1510049766 0.1510049766
0.1518730449 0.1518730449 0.1518730449
0.1527432346 0.1527432346 0.1527432346
0.1536278331 0.1536278331 0.1536278331
0.1545123870 0.1545123870 0.1545123870
0.1553847896 0.1553847896 0.1553847896
0.1562816450 0.1562816450 0.1562816450
0.1571695204 0.1571695204 0.1571695204
0.1580664494 0.1580664494 0.1580664494
0.1589572840 0.1589572840 0.1589572840
0.1598667774 0.1598667774 0.1598667774
0.1607711522 0.1607711522 0.1607711522
0.1616845960 0.1616845960 0.1616845960
0.1626001373 0.1626001373 0.1626001373
0.1635175973 0.1635175973 0.1635175973
0.1644447710 0.1644447710 0.1644447710
0.1653636550 0.1653636550 0.1653636550
0.1662941849 0.1662941849 0.1662941849
0.1672379707 0.1672379707 0.1672379707
0.1681702957 0.1681702957 0.1681702957
0.1691157397 0.1691157397 0.1691157397
0.1700622621 0.1700622621 0.1700622621
0.1710231174 0.1710231174 0.1710231174
0.1719826651 0.1719826651 0.1719826651
0.1729348199 0.1729348199 0.1729348199
0.1739043763 0.1739043763 0.1739043763
0.1748714543 0.1748714543 0.1748714543
0.1758449683 0.1758449683 0.1758449683
0.1768215457 0.1768215457 0.1768215457
0.1777981231 0.1777981231 0.1777981231
0.1787781033 0.1787781033 0.1787781033
0.1797634653 0.1797634653 0.1797634653
0.1807457256 0.1807457256 0.1807457256
0.1817367894 0.1817367894 0.1817367894
0.1827413484 0.1827413484 0.1827413484
0.1837343668 0.1837343668 0.1837343668
0.1847393024 0.1847393024 0.1847393024
0.1857352840 0.1857352840 0.1857352840
0.1867429682 0.1867429682 0.1867429682
0.1877588668 0.1877588668 0.1877588668
0.1887727307 0.1887727307 0.1887727307
0.1897917144 0.1897917144 0.1897917144
0.1908140688 0.1908140688 0.1908140688
0.1918364233 0.1918364233 0.1918364233
0.1928587778 0.1928587778 0.1928587778
0.1938830558 0.1938830558 0.1938830558
0.1949187457 0.1949187457 0.1949187457
0.1959563592 0.1959563592 0.1959563592
0.1969939727 0.1969939727 0.1969939727
0.1980315862 0.1980315862 0.1980315862
0.1990707523 0.1990707523 0.1990707523
0.2001218180 0.2001218180 0.2001218180
0.2011614668 0.2011614668 0.2011614668
0.2022153884 0.2022153884 0.2022153884
0.2032774151 0.2032774151 0.2032774151
0.2043365728 0.2043365728 0.2043365728
0.2054016938 0.2054016938 0.2054016938
0.2064698253 0.2064698253 0.2064698253
0.2075379568 0.2075379568 0.2075379568
0.2086089517 0.2086089517 0.2086089517
0.2096862510 0.2096862510 0.2096862510
0.2107603645 0.2107603645 0.2107603645
0.2118410010 0.2118410010 0.2118410010
0.2129252088 0.2129252088 0.2129252088
0.2140205136 0.2140205136 0.2140205136
0.2151096021 0.2151096021 0.2151096021
0.2162050813 0.2162050813 0.2162050813
0.2173037308 0.2173037308 0.2173037308
0.2184023804 0.2184023804 0.2184023804
0.2195010300 0.2195010300 0.2195010300
0.2206028213 0.2206028213 0.2206028213
0.2217135882 0.2217135882 0.2217135882
0.2228267362 0.2228267362 0.2228267362
0.2239292064 0.2239292064 0.2239292064
0.2250523964 0.2250523964 0.2250523964
0.2261692226 0.2261692226 0.2261692226
0.2272849119 0.2272849119 0.2272849119
0.2284115575 0.2284115575 0.2284115575
0.2295287499 0.2295287499 0.2295287499
0.2306553750 0.2306553750 0.2306553750
0.2317867347 0.2317867347 0.2317867347
0.2329287229 0.2329287229 0.2329287229
0.2340581369 0.2340581369 0.2340581369
0.2351903625 0.2351903625 0.2351903625
0.2363294593 0.2363294593 0.2363294593
0.2374609727 0.2374609727 0.2374609727
0.2386053254 0.2386053254 0.2386053254
0.2397497520 0.2397497520 0.2397497520
0.2408941787 0.2408941787 0.2408941787
0.2420388116 0.2420388116 0.2420388116
0.2431958133 0.2431958133 0.2431958133
0.2443457080 0.2443457080 0.2443457080
0.2455024033 0.2455024033 0.2455024033
0.2466620890 0.2466620890 0.2466620890
0.2478217746 0.2478217746 0.2478217746
0.2489814603 0.2489814603 0.2489814603
0.2501421289 0.2501421289 0.2501421289
0.2513160906 0.2513160906 0.2513160906
0.2524910353 0.2524910353 0.2524910353
0.2536659800 0.2536659800 0.2536659800
0.2548409247 0.2548409247 0.2548409247
0.2560185682 0.2560185682 0.2560185682
0.2572060731 0.2572060731 0.2572060731
0.2583962768 0.2583962768 0.2583962768
0.2595887947 0.2595887947 0.2595887947
0.2607891457 0.2607891457 0.2607891457
0.2619831623 0.2619831623 0.2619831623
0.2631896181 0.2631896181 0.2631896181
0.2644055119 0.2644055119 0.2644055119
0.2656149302 0.2656149302 0.2656149302
0.2668345159 0.2668345159 0.2668345159
0.2680580146 0.2680580146 0.2680580146
0.2692904125 0.2692904125 0.2692904125
0.2705163258 0.2705163258 0.2705163258
0.2717605870 0.2717605870 0.2717605870
0.2729992462 0.2729992462 0.2729992462
0.2742504005 0.2742504005 0.2742504005
0.2755016403 0.2755016403 0.2755016403
0.2767539791 0.2767539791 0.2767539791
0.2780193790 0.2780193790 0.2780193790
0.2792858778 0.2792858778 0.2792858778
0.2805545868 0.2805545868 0.2805545868
0.2818341344 0.2818341344 0.2818341344
0.2831158923 0.2831158923 0.2831158923
0.2843976501 0.2843976501 0.2843976501
0.2856803124 0.2856803124 0.2856803124
0.2869764248 0.2869764248 0.2869764248
0.2882734417 0.2882734417 0.2882734417
0.2895704585 0.2895704585 0.2895704585
0.2908674754 0.2908674754 0.2908674754
0.2921647391 0.2921647391 0.2921647391
0.2934767681 0.2934767681 0.2934767681
0.2947890440 0.2947890440 0.2947890440
0.2961037006 0.2961037006 0.2961037006
0.2974271665 0.2974271665 0.2974271665
0.2987430611 0.2987430611 0.2987430611
0.3000664370 0.3000664370 0.3000664370
0.3013821952 0.3013821952 0.3013821952
0.3027084764 0.3027084764 0.3027084764
0.3040365175 0.3040365175 0.3040365175
0.3053762071 0.3053762071 0.3053762071
0.3067063401 0.3067063401 0.3067063401
0.3080364405 0.3080364405 0.3080364405
0.3093758257 0.3093758257 0.3093758257
0.3107066308 0.3107066308 0.3107066308
0.3120469978 0.3120469978 0.3120469978
0.3133897917 0.3133897917 0.3133897917
0.3147308459 0.3147308459 0.3147308459
0.3160620566 0.3160620566 0.3160620566
0.3174049883 0.3174049883 0.3174049883
0.3187592672 0.3187592672 0.3187592672
0.3201037613 0.3201037613 0.3201037613
0.3214479209 0.3214479209 0.3214479209
0.3228046082 0.3228046082 0.3228046082
0.3241614473 0.3241614473 0.3241614473
0.3255079000 0.3255079000 0.3255079000
0.3268644367 0.3268644367 0.3268644367
0.3282343904 0.3282343904 0.3282343904
0.3295948730 0.3295948730 0.3295948730
0.3309553890 0.3309553890 0.3309553890
0.3323262379 0.3323262379 0.3323262379
0.3336995499 0.3336995499 0.3336995499
0.3350728618 0.3350728618 0.3350728618
0.3364461738 0.3364461738 0.3364461738
0.3378194858 0.3378194858 0.3378194858
0.3391951396 0.3391951396 0.3391951396
0.3405813687 0.3405813687 0.3405813687
0.3419677380 0.3419677380 0.3419677380
0.3433447769 0.3433447769 0.3433447769
0.3447338726 0.3447338726 0.3447338726
0.3461337927 0.3461337927 0.3461337927
0.3475259643 0.3475259643 0.3475259643
0.3489259134 0.3489259134 0.3489259134
0.3503179745 0.3503179745 0.3503179745
0.3517204547 0.3517204547 0.3517204547
0.3531250179 0.3531250179 0.3531250179
0.3545409172 0.3545409172 0.3545409172
0.3559473634 0.3559473634 0.3559473634
0.3573662928 0.3573662928 0.3573662928
0.3587853819 0.3587853819 0.3587853819
0.3602044709 0.3602044709 0.3602044709
0.3616235599 0.3616235599 0.3616235599
0.3630441877 0.3630441877 0.3630441877
0.3644747117 0.3644747117 0.3644747117
0.3658966848 0.3658966848 0.3658966848
0.3673304341 0.3673304341 0.3673304341
0.3687647822 0.3687647822 0.3687647822
0.3702013030 0.3702013030 0.3702013030
0.3716469502 0.3716469502 0.3716469502
0.3730844998 0.3730844998 0.3730844998
0.3745326925 0.3745326925 0.3745326925
0.3759822995 0.3759822995 0.3759822995
0.3774319066 0.3774319066 0.3774319066
0.3788829490 0.3788829490 0.3788829490
0.3803447983 0.3803447983 0.3803447983
0.3817982421 0.3817982421 0.3817982421
0.3832608530 0.3832608530 0.3832608530
0.3847257191 0.3847257191 0.3847257191
0.3861905852 0.3861905852 0.3861905852
0.3876554513 0.3876554513 0.3876554513
0.3891226187 0.3891226187 0.3891226187
0.3906004425 0.3906004425 0.3906004425
0.3920805676 0.3920805676 0.3920805676
0.3935606928 0.3935606928 0.3935606928
0.3950408179 0.3950408179 0.3950408179
0.3965209430 0.3965209430 0.3965209430
0.3980023587 0.3980023587 0.3980023587
0.3994949847 0.3994949847 0.3994949847
0.4009788698 0.4009788698 0.4009788698
0.4024719615 0.4024719615 0.4024719615
0.4039692390 0.4039692390 0.4039692390
0.4054758361 0.4054758361 0.4054758361
0.4069734707 0.4069734707 0.4069734707
0.4084819620 0.4084819620 0.4084819620
0.4099813807 0.4099813807 0.4099813807
0.4114900435 0.4114900435 0.4114900435
0.4130006867 0.4130006867 0.4130006867
0.4145113298 0.4145113298 0.4145113298
0.4160224855 0.4160224855 0.4160224855
0.4175457035 0.4175457035 0.4175457035
0.4190603377 0.4190603377 0.4190603377
0.4205844205 0.4205844205 0.4205844205
0.4221103227 0.4221103227 0.4221103227
0.4236362249 0.4236362249 0.4236362249
0.4251621271 0.4251621271 0.4251621271
0.4266901031 0.4266901031 0.4266901031
0.4282271709 0.4282271709 0.4282271709
0.4297551869 0.4297551869 0.4297551869
0.4312962539 0.4312962539 0.4312962539
0.4328374151 0.4328374151 0.4328374151
0.4343792706 0.4343792706 0.4343792706
0.4359335135 0.4359335135 0.4359335135
0.4374784002 0.4374784002 0.4374784002
0.4390325780 0.4390325780 0.4390325780
0.4405889982 0.4405889982 0.4405889982
0.4421454185 0.4421454185 0.4421454185
0.4437037608 0.4437037608 0.4437037608
0.4452735180 0.4452735180 0.4452735180
0.4468451972 0.4468451972 0.4468451972
0.4484168765 0.4484168765 0.4484168765
0.4499885557 0.4499885557 0.4499885557
0.4515607402 0.4515607402 0.4515607402
0.4531471733 0.4531471733 0.4531471733
0.4547341115 0.4547341115 0.4547341115
0.4563210498 0.4563210498 0.4563210498
0.4579087392 0.4579087392 0.4579087392
0.4595082328 0.4595082328 0.4595082328
0.4610992254 0.4610992254 0.4610992254
0.4627004987 0.4627004987 0.4627004987
0.4643162665 0.4643162665 0.4643162665
0.4659208010 0.4659208010 0.4659208010
0.4675364309 0.4675364309 0.4675364309
0.4691538872 0.4691538872 0.4691538872
0.4707715134 0.4707715134 0.4707715134
0.4724040589 0.4724040589 0.4724040589
0.4740367742 0.4740367742 0.4740367742
0.4756694896 0.4756694896 0.4756694896
0.4773022049 0.4773022049 0.4773022049
0.4789350972 0.4789350972 0.4789350972
0.4805828946 0.4805828946 0.4805828946
0.4822308690 0.4822308690 0.4822308690
0.4838788434 0.4838788434 0.4838788434
0.4855268177 0.4855268177 0.4855268177
0.4871749632 0.4871749632 0.4871749632
0.4888369270 0.4888369270 0.4888369270
0.4904878968 0.4904878968 0.4904878968
0.4921492332 0.4921492332 0.4921492332
0.4938124666 0.4938124666 0.4938124666
0.4954757000 0.4954757000 0.4954757000
0.4971389334 0.4971389334 0.4971389334
0.4988035905 0.4988035905 0.4988035905
0.5004787005 0.5004787005 0.5004787005
0.5021459510 0.5021459510 0.5021459510
0.5038206777 0.5038206777 0.5038206777
0.5054864641 0.5054864641 0.5054864641
0.5071641108 0.5071641108 0.5071641108
0.5088426032 0.5088426032 0.5088426032
0.5105210956 0.5105210956 0.5105210956
0.5121995880 0.5121995880 0.5121995880
0.5138780804 0.5138780804 0.5138780804
0.5155565728 0.5155565728 0.5155565728
0.5172351288 0.5172351288 0.5172351288
0.5189278589 0.5189278589 0.5189278589
0.5206090097 0.5206090097 0.5206090097
0.5223010605 0.5223010605 0.5223010605
0.5239968113 0.5239968113 0.5239968113
0.5257021057 0.5257021057 0.5257021057
0.5273986740 0.5273986740 0.5273986740
0.5291065843 0.5291065843 0.5291065843
0.5308155947 0.5308155947 0.5308155947
0.5325246052 0.5325246052 0.5325246052
0.5342336156 0.5342336156 0.5342336156
0.5359426261 0.5359426261 0.5359426261
0.5376536006 0.5376536006 0.5376536006
0.5393741942 0.5393741942 0.5393741942
0.5410849165 0.5410849165 0.5410849165
0.5427943503 0.5427943503 0.5427943503
0.5445181964 0.5445181964 0.5445181964
0.5462413706 0.5462413706 0.5462413706
0.5479531245 0.5479531245 0.5479531245
0.5496757458 0.5496757458 0.5496757458
0.5513979902 0.5513979902 0.5513979902
0.5531109253 0.5531109253 0.5531109253
0.5548332952 0.5548332952 0.5548332952
0.5565564859 0.5565564859 0.5565564859
0.5582668438 0.5582668438 0.5582668438
0.5599908446 0.5599908446 0.5599908446
0.5617139074 0.5617139074 0.5617139074
0.5634258420 0.5634258420 0.5634258420
0.5651464274 0.5651464274 0.5651464274
0.5668574044 0.5668574044 0.5668574044
0.5685664149 0.5685664149 0.5685664149
0.5702767833 0.5702767833 0.5702767833
0.5719989399 0.5719989399 0.5719989399
0.5737087053 0.5737087053 0.5737087053
0.5754187154 0.5754187154 0.5754187154
0.5771404525 0.5771404525 0.5771404525
0.5788509957 0.5788509957 0.5788509957
0.5805620312 0.5805620312 0.5805620312
0.5822823498 0.5822823498 0.5822823498
0.5839948699 0.5839948699 0.5839948699
0.5857164817 0.5857164817 0.5857164817
0.5874268279 0.5874268279 0.5874268279
0.5891502745 0.5891502745 0.5891502745
0.5908611343 0.5908611343 0.5908611343
0.5925841154 0.5925841154 0.5925841154
0.5943064170 0.5943064170 0.5943064170
0.5960194085 0.5960194085 0.5960194085
0.5977398179 0.5977398179 0.5977398179
0.5994521050 0.5994521050 0.5994521050
0.6011740905 0.6011740905 0.6011740905
0.6028839551 0.6028839551 0.6028839551
0.6045938722 0.6045938722 0.6045938722
0.6063157679 0.6063157679 0.6063157679
0.6080262455 0.6080262455 0.6080262455
0.6097372792 0.6097372792 0.6097372792
0.6114575733 0.6114575733 0.6114575733
0.6131685359 0.6131685359 0.6131685359
0.6148775463 0.6148775463 0.6148775463
0.6165865568 0.6165865568 0.6165865568
0.6182948808 0.6182948808 0.6182948808
0.6199907781 0.6199907781 0.6199907781
0.6216983291 0.6216983291 0.6216983291
0.6234052985 0.6234052985 0.6234052985
0.6251030106 0.6251030106 0.6251030106
0.6268085670 0.6268085670 0.6268085670
0.6285038529 0.6285038529 0.6285038529
0.6301976043 0.6301976043 0.6301976043
0.6318925199 0.6318925199 0.6318925199
0.6335986558 0.6335986558 0.6335986558
0.6352941176 0.6352941176 0.6352941176
0.6369878691 0.6369878691 0.6369878691
0.6386816205 0.6386816205 0.6386816205
0.6403753719 0.6403753719 0.6403753719
0.6420691234 0.6420691234 0.6420691234
0.6437628748 0.6437628748 0.6437628748
0.6454566262 0.6454566262 0.6454566262
0.6471503777 0.6471503777 0.6471503777
0.6488441291 0.6488441291 0.6488441291
0.6505361880 0.6505361880 0.6505361880
0.6522173164 0.6522173164 0.6522173164
0.6539100417 0.6539100417 0.6539100417
0.6555897670 0.6555897670 0.6555897670
