Masters/REDlogFilm_to_REDgamma3.cube
TITLE "REDlogFilm_to_REDgamma3"
# Created by Tashi Trieu and Greg Cotten

LUT_1D_SIZE 1024

0.0281986725 0.0281986725 0.0281986725
0.0282108992 0.0282108992 0.0282108992
0.0282231258 0.0282231258 0.0282231258
0.0282353525 0.0282353525 0.0282353525
0.0282475791 0.0282475791 0.0282475791
0.0282598058 0.0282598058 0.0282598058
0.0282720324 0.0282720324 0.0282720324
0.0282842591 0.0282842591 0.0282842591
0.0282964857 0.0282964857 0.0282964857
0.0283087124 0.0283087124 0.0283087124
0.0283209390 0.0283209390 0.0283209390
0.0283331657 0.0283331657 0.0283331657
0.0283453923 0.0283453923 0.0283453923
0.0283576190 0.0283576190 0.0283576190
0.0283698456 0.0283698456 0.0283698456
0.0283820723 0.0283820723 0.0283820723
0.0283942989 0.0283942989 0.0283942989
0.0284065256 0.0284065256 0.0284065256
0.0284187522 0.0284187522 0.0284187522
0.0284309789 0.0284309789 0.0284309789
0.0284432055 0.0284432055 0.0284432055
0.0284554322 0.0284554322 0.0284554322
0.0284676588 0.0284676588 0.0284676588
0.0284798855 0.0284798855 0.0284798855
0.0284921121 0.0284921121 0.0284921121
0.0285043388 0.0285043388 0.0285043388
0.0285165654 0.0285165654 0.0285165654
0.0285287921 0.0285287921 0.0285287921
0.0285410187 0.0285410187 0.0285410187
0.0285532454 0.0285532454 0.0285532454
0.0285654720 0.0285654720 0.0285654720
0.0285776987 0.0285776987 0.0285776987
0.0285899253 0.0285899253 0.0285899253
0.0286021520 0.0286021520 0.0286021520
0.0286143786 0.0286143786 0.0286143786
0.0286266053 0.0286266053 0.0286266053
0.0286388319 0.0286388319 0.0286388319
0.0286510586 0.0286510586 0.0286510586
0.0286632852 0.0286632852 0.0286632852
0.0286755119 0.0286755119 0.0286755119
0.0286877385 0.0286877385 0.0286877385
0.0286999652 0.0286999652 0.0286999652
0.0287121918 0.0287121918 0.0287121918
0.0287244185 0.0287244185 0.0287244185
0.0287366451 0.0287366451 0.0287366451
0.0287488718 0.0287488718 0.0287488718
0.0287610984 0.0287610984 0.0287610984
0.0287733251 0.0287733251 0.0287733251
0.0287855517 0.0287855517 0.0287855517
0.0287977784 0.0287977784 0.0287977784
0.0288100050 0.0288100050 0.0288100050
0.0288222317 0.0288222317 0.0288222317
0.0288344583 0.0288344583 0.0288344583
0.0288466850 0.0288466850 0.0288466850
0.0288589116 0.0288589116 0.0288589116
0.0288711383 0.0288711383 0.0288711383
0.0288833649 0.0288833649 0.0288833649
0.0288955916 0.0288955916 0.0288955916
0.0289078182 0.0289078182 0.0289078182
0.0289200449 0.0289200449 0.0289200449
0.0289322715 0.0289322715 0.0289322715
0.0289444982 0.0289444982 0.0289444982
0.0289567248 0.0289567248 0.0289567248
0.0289689515 0.0289689515 0.0289689515
0.0289811781 0.0289811781 0.0289811781
0.0289934048 0.0289934048 0.0289934048
0.0290056314 0.0290056314 0.0290056314
0.0290178581 0.0290178581 0.0290178581
0.0290300847 0.0290300847 0.0290300847
0.0290423114 0.0290423114 0.0290423114
0.0290545380 0.0290545380 0.0290545380
0.0290667647 0.0290667647 0.0290667647
0.0290789913 0.0290789913 0.0290789913
0.0290912180 0.0290912180 0.0290912180
0.0291034446 0.0291034446 0.0291034446
0.0291156713 0.0291156713 0.0291156713
0.0291873466 0.0291873466 0.0291873466
0.0293949518 0.0293949518 0.0293949518
0.0296025571 0.0296025571 0.0296025571
0.0298101623 0.0298101623 0.0298101623
0.0300177675 0.0300177675 0.0300177675
0.0302626711 0.0302626711 0.0302626711
0.0305143503 0.0305143503 0.0305143503
0.0307660294 0.0307660294 0.0307660294
0.0310224784 0.0310224784 0.0310224784
0.0313023902 0.0313023902 0.0313023902
0.0315823019 0.0315823019 0.0315823019
0.0318622137 0.0318622137 0.0318622137
0.0321602297 0.0321602297 0.0321602297
0.0324611311 0.0324611311 0.0324611311
0.0327620325 0.0327620325 0.0327620325
0.0330703254 0.0330703254 0.0330703254
0.0333806218 0.0333806218 0.0333806218
0.0336909181 0.0336909181 0.0336909181
0.0340012145 0.0340012145 0.0340012145
0.0343115109 0.0343115109 0.0343115109
0.0346218073 0.0346218073 0.0346218073
0.0349321036 0.0349321036 0.0349321036
0.0352424000 0.0352424000 0.0352424000
0.0355526964 0.0355526964 0.0355526964
0.0358641389 0.0358641389 0.0358641389
0.0361758017 0.0361758017 0.0361758017
0.0364874644 0.0364874644 0.0364874644
0.0368152869 0.0368152869 0.0368152869
0.0371455404 0.0371455404 0.0371455404
0.0374771517 0.0374771517 0.0374771517
0.0378277229 0.0378277229 0.0378277229
0.0381782942 0.0381782942 0.0381782942
0.0385344510 0.0385344510 0.0385344510
0.0388981084 0.0388981084 0.0388981084
0.0392617657 0.0392617657 0.0392617657
0.0396330936 0.0396330936 0.0396330936
0.0400054492 0.0400054492 0.0400054492
0.0403829528 0.0403829528 0.0403829528
0.0407682985 0.0407682985 0.0407682985
0.0411536442 0.0411536442 0.0411536442
0.0415503167 0.0415503167 0.0415503167
0.0419470512 0.0419470512 0.0419470512
0.0423481868 0.0423481868 0.0423481868
0.0427515721 0.0427515721 0.0427515721
0.0431572087 0.0431572087 0.0431572087
0.0435667217 0.0435667217 0.0435667217
0.0439773170 0.0439773170 0.0439773170
0.0443969089 0.0443969089 0.0443969089
0.0448165007 0.0448165007 0.0448165007
0.0452429999 0.0452429999 0.0452429999
0.0456702525 0.0456702525 0.0456702525
0.0460975051 0.0460975051 0.0460975051
0.0465247578 0.0465247578 0.0465247578
0.0469543437 0.0469543437 0.0469543437
0.0473856948 0.0473856948 0.0473856948
0.0478196607 0.0478196607 0.0478196607
0.0482571833 0.0482571833 0.0482571833
0.0486937476 0.0486937476 0.0486937476
0.0491281624 0.0491281624 0.0491281624
0.0495625773 0.0495625773 0.0495625773
0.0499969923 0.0499969923 0.0499969923
0.0504317749 0.0504317749 0.0504317749
0.0508739407 0.0508739407 0.0508739407
0.0513161064 0.0513161064 0.0513161064
0.0517586023 0.0517586023 0.0517586023
0.0522011139 0.0522011139 0.0522011139
0.0526450220 0.0526450220 0.0526450220
0.0530891520 0.0530891520 0.0530891520
0.0535381239 0.0535381239 0.0535381239
0.0539884696 0.0539884696 0.0539884696
0.0544497452 0.0544497452 0.0544497452
0.0549151897 0.0549151897 0.0549151897
0.0553820449 0.0553820449 0.0553820449
0.0558494075 0.0558494075 0.0558494075
0.0563280384 0.0563280384 0.0563280384
0.0568103223 0.0568103223 0.0568103223
0.0573046606 0.0573046606 0.0573046606
0.0578013607 0.0578013607 0.0578013607
0.0583047227 0.0583047227 0.0583047227
0.0588101735 0.0588101735 0.0588101735
0.0593278289 0.0593278289 0.0593278289
0.0598531960 0.0598531960 0.0598531960
0.0603930740 0.0603930740 0.0603930740
0.0609357216 0.0609357216 0.0609357216
0.0614799768 0.0614799768 0.0614799768
0.0620492256 0.0620492256 0.0620492256
0.0626238555 0.0626238555 0.0626238555
0.0632063612 0.0632063612 0.0632063612
0.0638038042 0.0638038042 0.0638038042
0.0644089411 0.0644089411 0.0644089411
0.0650225391 0.0650225391 0.0650225391
0.0656498567 0.0656498567 0.0656498567
0.0662857018 0.0662857018 0.0662857018
0.0669289052 0.0669289052 0.0669289052
0.0675822080 0.0675822080 0.0675822080
0.0682465791 0.0682465791 0.0682465791
0.0689249588 0.0689249588 0.0689249588
0.0696044026 0.0696044026 0.0696044026
0.0702932328 0.0702932328 0.0702932328
0.0709921855 0.0709921855 0.0709921855
0.0717020672 0.0717020672 0.0717020672
0.0724076088 0.0724076088 0.0724076088
0.0731260713 0.0731260713 0.0731260713
0.0738536660 0.0738536660 0.0738536660
0.0745881475 0.0745881475 0.0745881475
0.0753339564 0.0753339564 0.0753339564
0.0760814832 0.0760814832 0.0760814832
0.0768291752 0.0768291752 0.0768291752
0.0775811486 0.0775811486 0.0775811486
0.0783398184 0.0783398184 0.0783398184
0.0791027957 0.0791027957 0.0791027957
0.0798809838 0.0798809838 0.0798809838
0.0806591897 0.0806591897 0.0806591897
0.0814373999 0.0814373999 0.0814373999
0.0822156100 0.0822156100 0.0822156100
0.0829967728 0.0829967728 0.0829967728
0.0837872892 0.0837872892 0.0837872892
0.0845807584 0.0845807584 0.0845807584
0.0853742275 0.0853742275 0.0853742275
0.0861676967 0.0861676967 0.0861676967
0.0869611658 0.0869611658 0.0869611658
0.0877586553 0.0877586553 0.0877586553
0.0885603197 0.0885603197 0.0885603197
0.0893581527 0.0893581527 0.0893581527
0.0901656255 0.0901656255 0.0901656255
0.0909742885 0.0909742885 0.0909742885
0.0917866198 0.0917866198 0.0917866198
0.0926070039 0.0926070039 0.0926070039
0.0934309911 0.0934309911 0.0934309911
0.0942549783 0.0942549783 0.0942549783
0.0950822758 0.0950822758 0.0950822758
0.0959182116 0.0959182116 0.0959182116
0.0967574783 0.0967574783 0.0967574783
0.0975969652 0.0975969652 0.0975969652
0.0984512093 0.0984512093 0.0984512093
0.0993057145 0.0993057145 0.0993057145
0.1001602197 0.1001602197 0.1001602197
0.1010182952 0.1010182952 0.1010182952
0.1018806097 0.1018806097 0.1018806097
0.1027430603 0.1027430603 0.1027430603
0.1036127775 0.1036127775 0.1036127775
0.1044898280 0.1044898280 0.1044898280
0.1053673306 0.1053673306 0.1053673306
0.1062485695 0.1062485695 0.1062485695
0.1071368518 0.1071368518 0.1071368518
0.1080308343 0.1080308343 0.1080308343
0.1089216037 0.1089216037 0.1089216037
0.1098191806 0.1098191806 0.1098191806
0.1107215968 0.1107215968 0.1107215968
0.1116330087 0.1116330087 0.1116330087
0.1125369980 0.1125369980 0.1125369980
0.1134508278 0.1134508278 0.1134508278
0.1143663691 0.1143663691 0.1143663691
0.1152832052 0.1152832052 0.1152832052
0.1162127108 0.1162127108 0.1162127108
0.1171420937 0.1171420937 0.1171420937
0.1180616549 0.1180616549 0.1180616549
0.1190035835 0.1190035835 0.1190035835
0.1199375256 0.1199375256 0.1199375256
0.1208801329 0.1208801329 0.1208801329
0.1218146930 0.1218146930 0.1218146930
0.1227609454 0.1227609454 0.1227609454
0.1237177034 0.1237177034 0.1237177034
0.1246688611 0.1246688611 0.1246688611
0.1256275273 0.1256275273 0.1256275273
0.1265888457 0.1265888457 0.1265888457
0.1275501640 0.1275501640 0.1275501640
0.1285149465 0.1285149465 0.1285149465
0.1294880598 0.1294880598 0.1294880598
0.1304646372 0.1304646372 0.1304646372
0.1314447592 0.1314447592 0.1314447592
0.1324296790 0.1324296790 0.1324296790
0.1334127447 0.1334127447 0.1334127447
0.1344040959 0.1344040959 0.1344040959
0.1354066448 0.1354066448 0.1354066448
0.1364015353 0.1364015353 0.1364015353
0.1374074922 0.1374074922 0.1374074922
0.1384157035 0.1384157035 0.1384157035
0.1394369421 0.1394369421 0.1394369421
0.1404592966 0.1404592966 0.1404592966
0.1414816510 0.1414816510 0.1414816510
0.1425074325 0.1425074325 0.1425074325
0.1435416190 0.1435416190 0.1435416190
0.1445792325 0.1445792325 0.1445792325
0.1456183731 0.1456183731 0.1456183731
0.1466697185 0.1466697185 0.1466697185
0.1477242458 0.1477242458 0.1477242458
0.1487907225 0.1487907225 0.1487907225
0.1498588540 0.1498588540 0.1498588540
0.1509269856 0.1509269856 0.1509269856
0.1519974964 0.1519974964 0.1519974964
0.1530776653 0.1530776653 0.1530776653
0.1541487049 0.1541487049 0.1541487049
0.1552427295 0.1552427295 0.1552427295
0.1563318763 0.1563318763 0.1563318763
0.1574273289 0.1574273289 0.1574273289
0.1585259785 0.1585259785 0.1585259785
0.1596246865 0.1596246865 0.1596246865
0.1607364412 0.1607364412 0.1607364412
0.1618432643 0.1618432643 0.1618432643
0.1629633685 0.1629633685 0.1629633685
0.1640821224 0.1640821224 0.1640821224
0.1652094301 0.1652094301 0.1652094301
0.1663385977 0.1663385977 0.1663385977
0.1674708664 0.1674708664 0.1674708664
0.1686121920 0.1686121920 0.1686121920
0.1697571745 0.1697571745 0.1697571745
0.1709143134 0.1709143134 0.1709143134
0.1720637561 0.1720637561 0.1720637561
0.1732229761 0.1732229761 0.1732229761
0.1743953613 0.1743953613 0.1743953613
0.1755703059 0.1755703059 0.1755703059
0.1767452506 0.1767452506 0.1767452506
0.1779222850 0.1779222850 0.1779222850
0.1791103990 0.1791103990 0.1791103990
0.1803032714 0.1803032714 0.1803032714
0.1815060655 0.1815060655 0.1815060655
0.1827115282 0.1827115282 0.1827115282
0.1839191936 0.1839191936 0.1839191936
0.1851377127 0.1851377127 0.1851377127
0.1863595528 0.1863595528 0.1863595528
0.1875924130 0.1875924130 0.1875924130
0.1888207981 0.1888207981 0.1888207981
0.1900663767 0.1900663767 0.1900663767
0.1913176165 0.1913176165 0.1913176165
0.1925715443 0.1925715443 0.1925715443
0.1938353552 0.1938353552 0.1938353552
0.1951018540 0.1951018540 0.1951018540
0.1963706486 0.1963706486 0.1963706486
0.1976501106 0.1976501106 0.1976501106
0.1989346010 0.1989346010 0.1989346010
0.2002288853 0.2002288853 0.2002288853
0.2015259022 0.2015259022 0.2015259022
0.2028252699 0.2028252699 0.2028252699
0.2041351949 0.2041351949 0.2041351949
0.2054501425 0.2054501425 0.2054501425
0.2067744960 0.2067744960 0.2067744960
0.2080897739 0.2080897739 0.2080897739
0.2094148165 0.2094148165 0.2094148165
0.2107442687 0.2107442687 0.2107442687
0.2120851453 0.2120851453 0.2120851453
0.2134279393 0.2134279393 0.2134279393
0.2147707332 0.2147707332 0.2147707332
0.2161135271 0.2161135271 0.2161135271
0.2174589349 0.2174589349 0.2174589349
0.2188143740 0.2188143740 0.2188143740
0.2201724269 0.2201724269 0.2201724269
0.2215304799 0.2215304799 0.2215304799
0.2228885328 0.2228885328 0.2228885328
0.2242480531 0.2242480531 0.2242480531
0.2256198978 0.2256198978 0.2256198978
0.2269932097 0.2269932097 0.2269932097
0.2283644441 0.2283644441 0.2283644441
0.2297284412 0.2297284412 0.2297284412
0.2311112475 0.2311112475 0.2311112475
0.2324864576 0.2324864576 0.2324864576
0.2338615008 0.2338615008 0.2338615008
0.2352483406 0.2352483406 0.2352483406
0.2366369116 0.2366369116 0.2366369116
0.2380275346 0.2380275346 0.2380275346
0.2394275113 0.2394275113 0.2394275113
0.2408198575 0.2408198575 0.2408198575
0.2422217136 0.2422217136 0.2422217136
0.2436273277 0.2436273277 0.2436273277
0.2450425356 0.2450425356 0.2450425356
0.2464499539 0.2464499539 0.2464499539
0.2478675517 0.2478675517 0.2478675517
0.2492876549 0.2492876549 0.2492876549
0.2507185599 0.2507185599 0.2507185599
0.2521403951 0.2521403951 0.2521403951
0.2535744259 0.2535744259 0.2535744259
0.2550087739 0.2550087739 0.2550087739
0.2564431220 0.2564431220 0.2564431220
0.2578788299 0.2578788299 0.2578788299
0.2593251518 0.2593251518 0.2593251518
0.2607634126 0.2607634126 0.2607634126
0.2622110323 0.2622110323 0.2622110323
0.2636629935 0.2636629935 0.2636629935
0.2651254794 0.2651254794 0.2651254794
0.2665774945 0.2665774945 0.2665774945
0.2680399786 0.2680399786 0.2680399786
0.2695048447 0.2695048447 0.2695048447
0.2709697108 0.2709697108 0.2709697108
0.2724345769 0.2724345769 0.2724345769
0.2739018364 0.2739018364 0.2739018364
0.2753795682 0.2753795682 0.2753795682
0.2768596933 0.2768596933 0.2768596933
0.2783398184 0.2783398184 0.2783398184
0.2798199435 0.2798199435 0.2798199435
0.2813000687 0.2813000687 0.2813000687
0.2827808393 0.2827808393 0.2827808393
0.2842755779 0.2842755779 0.2842755779
0.2857709621 0.2857709621 0.2857709621
0.2872663462 0.2872663462 0.2872663462
0.2887640663 0.2887640663 0.2887640663
0.2902723735 0.2902723735 0.2902723735
0.2917830167 0.2917830167 0.2917830167
0.2932936599 0.2932936599 0.2932936599
0.2948043030 0.2948043030 0.2948043030
0.2963149462 0.2963149462 0.2963149462
0.2978276478 0.2978276478 0.2978276478
0.2993514916 0.2993514916 0.2993514916
0.3008773938 0.3008773938 0.3008773938
0.3024032959 0.3024032959 0.3024032959
0.3039298394 0.3039298394 0.3039298394
0.3054681289 0.3054681289 0.3054681289
0.3069979374 0.3069979374 0.3069979374
0.3085374228 0.3085374228 0.3085374228
0.3100785840 0.3100785840 0.3100785840
0.3116213835 0.3116213835 0.3116213835
0.3131754580 0.3131754580 0.3131754580
0.3147195449 0.3147195449 0.3147195449
0.3162737469 0.3162737469 0.3162737469
0.3178301671 0.3178301671 0.3178301671
0.3193865873 0.3193865873 0.3193865873
0.3209430076 0.3209430076 0.3209430076
0.3224995228 0.3224995228 0.3224995228
0.3240711070 0.3240711070 0.3240711070
0.3256406493 0.3256406493 0.3256406493
0.3272003454 0.3272003454 0.3272003454
0.3287846165 0.3287846165 0.3287846165
0.3303578241 0.3303578241 0.3303578241
0.3319308182 0.3319308182 0.3319308182
0.3335164416 0.3335164416 0.3335164416
0.3351054890 0.3351054890 0.3351054890
0.3367035959 0.3367035959 0.3367035959
0.3382929666 0.3382929666 0.3382929666
0.3398947127 0.3398947127 0.3398947127
0.3414969100 0.3414969100 0.3414969100
0.3431007432 0.3431007432 0.3431007432
0.3447165175 0.3447165175 0.3447165175
0.3463205028 0.3463205028 0.3463205028
0.3479362173 0.3479362173 0.3479362173
0.3495536736 0.3495536736 0.3495536736
0.3511711299 0.3511711299 0.3511711299
0.3527903480 0.3527903480 0.3527903480
0.3544191327 0.3544191327 0.3544191327
0.3560402927 0.3560402927 0.3560402927
0.3576714733 0.3576714733 0.3576714733
0.3593041886 0.3593041886 0.3593041886
0.3609369039 0.3609369039 0.3609369039
0.3625696193 0.3625696193 0.3625696193
0.3642023346 0.3642023346 0.3642023346
0.3658350500 0.3658350500 0.3658350500
0.3674677653 0.3674677653 0.3674677653
0.3691024191 0.3691024191 0.3691024191
0.3707475363 0.3707475363 0.3707475363
0.3723820363 0.3723820363 0.3723820363
0.3740272287 0.3740272287 0.3740272287
0.3756618601 0.3756618601 0.3756618601
0.3772959306 0.3772959306 0.3772959306
0.3789423440 0.3789423440 0.3789423440
0.3805769190 0.3805769190 0.3805769190
0.3822210903 0.3822210903 0.3822210903
0.3838559548 0.3838559548 0.3838559548
0.3854890701 0.3854890701 0.3854890701
0.3871366445 0.3871366445 0.3871366445
0.3887846189 0.3887846189 0.3887846189
0.3904325933 0.3904325933 0.3904325933
0.3920805676 0.3920805676 0.3920805676
0.3937285420 0.3937285420 0.3937285420
0.3953765164 0.3953765164 0.3953765164
0.3970244907 0.3970244907 0.3970244907
0.3986742376 0.3986742376 0.3986742376
0.4003349976 0.4003349976 0.4003349976
0.4019836728 0.4019836728 0.4019836728
0.4036335801 0.4036335801 0.4036335801
0.4052948806 0.4052948806 0.4052948806
0.4069565348 0.4069565348 0.4069565348
0.4086063116 0.4086063116 0.4086063116
0.4102693217 0.4102693217 0.4102693217
0.4119325551 0.4119325551 0.4119325551
0.4135957885 0.4135957885 0.4135957885
0.4152590219 0.4152590219 0.4152590219
0.4169222553 0.4169222553 0.4169222553
0.4185854887 0.4185854887 0.4185854887
0.4202487221 0.4202487221 0.4202487221
0.4219119554 0.4219119554 0.4219119554
0.4235751888 0.4235751888 0.4235751888
0.4252384222 0.4252384222 0.4252384222
0.4269016556 0.4269016556 0.4269016556
0.4285669286 0.4285669286 0.4285669286
0.4302413453 0.4302413453 0.4302413453
0.4319066148 0.4319066148 0.4319066148
0.4335698482 0.4335698482 0.4335698482
0.4352344453 0.4352344453 0.4352344453
0.4369095624 0.4369095624 0.4369095624
0.4385748074 0.4385748074 0.4385748074
0.4402380407 0.4402380407 0.4402380407
0.4419012905 0.4419012905 0.4419012905
0.4435784913 0.4435784913 0.4435784913
0.4452450036 0.4452450036 0.4452450036
0.4469194267 0.4469194267 0.4469194267
0.4485847257 0.4485847257 0.4485847257
0.4502481292 0.4502481292 0.4502481292
0.4519264515 0.4519264515 0.4519264515
0.4536030125 0.4536030125 0.4536030125
0.4552702656 0.4552702656 0.4552702656
0.4569450538 0.4569450538 0.4569450538
0.4586103476 0.4586103476 0.4586103476
0.4602883955 0.4602883955 0.4602883955
0.4619668879 0.4619668879 0.4619668879
0.4636453803 0.4636453803 0.4636453803
0.4653238727 0.4653238727 0.4653238727
0.4670014537 0.4670014537 0.4670014537
0.4686662143 0.4686662143 0.4686662143
0.4703457222 0.4703457222 0.4703457222
0.4720357818 0.4720357818 0.4720357818
0.4737163348 0.4737163348 0.4737163348
0.4753948272 0.4753948272 0.4753948272
0.4770733196 0.4770733196 0.4770733196
0.4787530521 0.4787530521 0.4787530521
0.4804436521 0.4804436521 0.4804436521
0.4821240558 0.4821240558 0.4821240558
0.4838042249 0.4838042249 0.4838042249
0.4854955090 0.4854955090 0.4854955090
0.4871754093 0.4871754093 0.4871754093
0.4888685435 0.4888685435 0.4888685435
0.4905622950 0.4905622950 0.4905622950
0.4922540223 0.4922540223 0.4922540223
0.4939359956 0.4939359956 0.4939359956
0.4956287121 0.4956287121 0.4956287121
0.4973365514 0.4973365514 0.4973365514
0.4990326842 0.4990326842 0.4990326842
0.5007380349 0.5007380349 0.5007380349
0.5024358187 0.5024358187 0.5024358187
0.5041428244 0.5041428244 0.5041428244
0.5058518349 0.5058518349 0.5058518349
0.5075608453 0.5075608453 0.5075608453
0.5092698558 0.5092698558 0.5092698558
0.5109807602 0.5109807602 0.5109807602
0.5127010791 0.5127010791 0.5127010791
0.5144121462 0.5144121462 0.5144121462
0.5161211566 0.5161211566 0.5161211566
0.5178305026 0.5178305026 0.5178305026
0.5195537299 0.5195537299 0.5195537299
0.5212634470 0.5212634470 0.5212634470
0.5229744324 0.5229744324 0.5229744324
0.5246946830 0.5246946830 0.5246946830
0.5264057374 0.5264057374 0.5264057374
0.5281147478 0.5281147478 0.5281147478
0.5298237583 0.5298237583 0.5298237583
0.5315327687 0.5315327687 0.5315327687
0.5332400151 0.5332400151 0.5332400151
0.5349376003 0.5349376003 0.5349376003
0.5366426060 0.5366426060 0.5366426060
0.5383382925 0.5383382925 0.5383382925
0.5400320439 0.5400320439 0.5400320439
0.5417257954 0.5417257954 0.5417257954
0.5434195468 0.5434195468 0.5434195468
0.5451112078 0.5451112078 0.5451112078
0.5467936598 0.5467936598 0.5467936598
0.5484843901 0.5484843901 0.5484843901
0.5501640345 0.5501640345 0.5501640345
0.5518411331 0.5518411331 0.5518411331
0.5535078038 0.5535078038 0.5535078038
0.5551842527 0.5551842527 0.5551842527
0.5568627451 0.5568627451 0.5568627451
0.5585409897 0.5585409897 0.5585409897
0.5602056739 0.5602056739 0.5602056739
0.5618810160 0.5618810160 0.5618810160
0.5635482786 0.5635482786 0.5635482786
0.5652231005 0.5652231005 0.5652231005
0.5668879225 0.5668879225 0.5668879225
0.5685511559 0.5685511559 0.5685511559
0.5702143893 0.5702143893 0.5702143893
0.5718776226 0.5718776226 0.5718776226
0.5735408560 0.5735408560 0.5735408560
0.5752040894 0.5752040894 0.5752040894
0.5768661242 0.5768661242 0.5768661242
0.5785173203 0.5785173203 0.5785173203
0.5801764700 0.5801764700 0.5801764700
0.5818265049 0.5818265049 0.5818265049
0.5834744793 0.5834744793 0.5834744793
0.5851224537 0.5851224537 0.5851224537
0.5867704280 0.5867704280 0.5867704280
0.5884165564 0.5884165564 0.5884165564
0.5900517284 0.5900517284 0.5900517284
0.5916980343 0.5916980343 0.5916980343
0.5933318074 0.5933318074 0.5933318074
0.5949645228 0.5949645228 0.5949645228
0.5965972381 0.5965972381 0.5965972381
0.5982299535 0.5982299535 0.5982299535
0.5998607678 0.5998607678 0.5998607678
0.6014801251 0.6014801251 0.6014801251
0.6030988291 0.6030988291 0.6030988291
0.6047297834 0.6047297834 0.6047297834
0.6063477531 0.6063477531 0.6063477531
0.6079630576 0.6079630576 0.6079630576
0.6095686114 0.6095686114 0.6095686114
0.6111848631 0.6111848631 0.6111848631
0.6128003450 0.6128003450 0.6128003450
0.6144045167 0.6144045167 0.6144045167
0.6160067140 0.6160067140 0.6160067140
0.6176089113 0.6176089113 0.6176089113
0.6192111086 0.6192111086 0.6192111086
0.6208133059 0.6208133059 0.6208133059
0.6224151168 0.6224151168 0.6224151168
0.6240040500 0.6240040500 0.6240040500
0.6256024254 0.6256024254 0.6256024254
0.6271915770 0.6271915770 0.6271915770
0.6287785153 0.6287785153 0.6287785153
0.6303654536 0.6303654536 0.6303654536
0.6319523919 0.6319523919 0.6319523919
0.6335387879 0.6335387879 0.6335387879
0.6351126208 0.6351126208 0.6351126208
0.6366957170 0.6366957170 0.6366957170
0.6382696269 0.6382696269 0.6382696269
0.6398413062 0.6398413062 0.6398413062
0.6414129854 0.6414129854 0.6414129854
0.6429846647 0.6429846647 0.6429846647
0.6445560707 0.6445560707 0.6445560707
0.6461148137 0.6461148137 0.6461148137
0.6476823956 0.6476823956 0.6476823956
0.6492408637 0.6492408637 0.6492408637
0.6507972839 0.6507972839 0.6507972839
0.6523537041 0.6523537041 0.6523537041
0.6539101244 0.6539101244 0.6539101244
0.6554648644 0.6554648644 0.6554648644
0.6570077058 0.6570077058 0.6570077058
0.6585495996 0.6585495996 0.6585495996
0.6601036652 0.6601036652 0.6601036652
0.6616464485 0.6616464485 0.6616464485
0.6631884323 0.6631884323 0.6631884323
0.6647424687 0.6647424687 0.6647424687
0.6662851911 0.6662851911 0.6662851911
0.6678254403 0.6678254403 0.6678254403
0.6693539267 0.6693539267 0.6693539267
0.6708934157 0.6708934157 0.6708934157
0.6724338176 0.6724338176 0.6724338176
0.6739604791 0.6739604791 0.6739604791
0.6754863813 0.6754863813 0.6754863813
0.6770122835 0.6770122835 0.6770122835
0.6785381857 0.6785381857 0.6785381857
0.6800640879 0.6800640879 0.6800640879
0.6815898378 0.6815898378 0.6815898378
0.6831006332 0.6831006332 0.6831006332
